!!!COM: Mozart, Wolfgang Amadeus
!!!OPR: Symphony in D Major
!!!OTL: Andante
!!!OMV: 2
!!!SCT: K 385
!!!SCA: Chronologisch-thematisches Verzeichnis sämtlicher Tonwerke Wolfgang Amade Mozarts (L. von Köchel; 1862, 2/1905, 3/1937, 1947)
!!!YOR: Breitkopf & Härtel Edition
!!!EED: Edmund Correia, Jr.
!!!ENC: Edmund Correia, Jr.
!!!CDT: 1756/1/27/-1791/12/5/
!!!OCY: Österreich
!!!YEC: Copyright (c) 1994, 2000 Center for Computer Assisted Research in the Humanities
!!!YEM: Rights to all derivative editions reserved.
!!!YEM: Refer to licensing agreement for further details.
!!!YEN: United States of America
**kern	**dynam	**kern	**dynam	**kern	**dynam	**kern	**dynam	**kern	**dynam	**kern	**dynam	**kern	**kern	**dynam
*I:Oboi	*I:Oboi	*I:Fagotti	*I:Fagotti	*I:Corni in G	*I:Corni in G	*I:Violino 1	*I:Violino 1	*I:Violino 2	*I:Violino 2	*I:Viola	*I:Viola	*I:Violoncello e Basso	*I:Violoncello e Basso	*I:Violoncello e Basso
*>[A,A,B,B]	*	*>[A,A,B,B]	*	*>[A,A,B,B]	*	*>[A,A,B,B]	*	*>[A,A,B,B]	*	*>[A,A,B,B]	*	*>[A,A,B,B]	*>[A,A,B,B]	*
*>A	*	*>A	*	*>A	*	*>A	*	*>A	*	*>A	*	*>A	*>A	*
*clefG2	*	*clefF4	*	*clefG2	*	*clefG2	*	*clefG2	*	*clefC3	*	*clefF4	*clefF4	*
*k[f#]	*	*k[f#]	*	*k[f#]	*	*k[f#]	*	*k[f#]	*	*k[f#]	*	*ITrd-7c-12	*k[f#]	*
*G:	*	*G:	*	*G:	*	*G:	*	*G:	*	*G:	*	*k[f#]	*G:	*
*M2/4	*	*M2/4	*	*M2/4	*	*M2/4	*	*M2/4	*	*M2/4	*	*G/e:	*M2/4	*
! Andante	!	! Andante	!	! Andante	!	! Andante	!	! Andante	!	! Andante	!	!	!	!
*tb64	*	*tb64	*	*tb64	*	*tb64	*	*tb64	*	*tb64	*	*M2/4	*	*
!	!	!	!	!	!	!	!	!	!	!	!	! Andante	! Andante	!
*	*	*	*	*	*	*	*	*	*	*	*	*tb64	*tb64	*
=1-	=1-	=1-	=1-	=1-	=1-	=1-	=1-	=1-	=1-	=1-	=1-	=1-	=1-	=1-
*^	*	*	*	*^	*	*	*	*	*	*	*	*	*	*
2g/	2g\	pp	[2d\ 2B\	p	2cc/	2c\	p	(4g/	p	16G'/LL	p	4g\	p	4GG\	4G\	p
.	.	.	.	.	.	.	.	.	.	16B'/	.	.	.	.	.	.
.	.	.	.	.	.	.	.	.	.	16d'/	.	.	.	.	.	.
.	.	.	.	.	.	.	.	.	.	16B'/JJ	.	.	.	.	.	.
.	.	.	.	.	.	.	.	8.b\L)	.	16G'/LL	.	4r	.	4r	4r	.
.	.	.	.	.	.	.	.	.	.	16B'/	.	.	.	.	.	.
.	.	.	.	.	.	.	.	.	.	16d'/	.	.	.	.	.	.
.	.	.	.	.	.	.	.	16dd\Jk	.	16B'/JJ	.	.	.	.	.	.
=2	=2	=2	=2	=2	=2	=2	=2	=2	=2	=2	=2	=2	=2	=2	=2	=2
*	*	*	*^	*	*	*	*	*	*	*	*	*	*	*	*	*
2az/	2f#\	zp	2dz/]	2c\	zp	2gz/	2G\	zp	4.ddz\	z	16A'/LL	.	4dz\	z	4DDz\	4Dz\	z
.	.	.	.	.	.	.	.	.	.	.	16c'/	.	.	.	.	.	.
.	.	.	.	.	.	.	.	.	.	.	16f#'/	.	.	.	.	.	.
.	.	.	.	.	.	.	.	.	.	.	16c'/JJ	.	.	.	.	.	.
.	.	.	.	.	.	.	.	.	.	.	16A'/LL	.	4r	.	4r	4r	.
.	.	.	.	.	.	.	.	.	.	.	16c'/	.	.	.	.	.	.
.	.	.	.	.	.	.	.	.	(24cc\LL	p	16f#'/	.	.	.	.	.	.
.	.	.	.	.	.	.	.	.	24b\	.	.	.	.	.	.	.	.
.	.	.	.	.	.	.	.	.	.	.	16c'/JJ	.	.	.	.	.	.
.	.	.	.	.	.	.	.	.	24a\JJ)	.	.	.	.	.	.	.	.
=3	=3	=3	=3	=3	=3	=3	=3	=3	=3	=3	=3	=3	=3	=3	=3	=3	=3
2r	2r	.	2r	2r	.	2r	2r	.	8g'/L	.	16B'/LL	.	8d'\L	p	8GG'\L	8G'\L	p
.	.	.	.	.	.	.	.	.	.	.	16d'/	.	.	.	.	.	.
.	.	.	.	.	.	.	.	.	8g'/	.	16g'/	.	8d'\	.	8BB'\	8B'\	.
.	.	.	.	.	.	.	.	.	.	.	16d'/JJ	.	.	.	.	.	.
.	.	.	.	.	.	.	.	.	8g'/	.	16B'/LL	.	8d'\	.	8D'\	8d'\	.
.	.	.	.	.	.	.	.	.	.	.	16d'/	.	.	.	.	.	.
.	.	.	.	.	.	.	.	.	8a'/J	.	16c'/	.	8f#'\J	.	8DD'\J	8D'\J	.
.	.	.	.	.	.	.	.	.	.	.	16A'/JJ	.	.	.	.	.	.
=4	=4	=4	=4	=4	=4	=4	=4	=4	=4	=4	=4	=4	=4	=4	=4	=4	=4
2r	2r	.	2r	2r	.	2r	2r	.	(8.a/L	.	16A'/LL	.	(4f#\	.	(4GG\	(4G\	.
.	.	.	.	.	.	.	.	.	.	.	16c'/	.	.	.	.	.	.
.	.	.	.	.	.	.	.	.	.	.	16d'/	.	.	.	.	.	.
.	.	.	.	.	.	.	.	.	16a#/Jk)	.	16c'/JJ	.	.	.	.	.	.
.	.	.	.	.	.	.	.	.	8b\	.	16G'/LL	.	8g\)	.	8GGG/)	8GG/)	.
.	.	.	.	.	.	.	.	.	.	.	16B'/	.	.	.	.	.	.
.	.	.	.	.	.	.	.	.	8r	.	16d'/	.	8r	.	8r	8r	.
.	.	.	.	.	.	.	.	.	.	.	16B'/JJ	.	.	.	.	.	.
=5	=5	=5	=5	=5	=5	=5	=5	=5	=5	=5	=5	=5	=5	=5	=5	=5	=5
[2eez/	[2cc\	zp	[2ez/	[2c\	zp	[2ccz/	[2c\	zp	4ee\ 4cc\ 4g\	f	16c'/LL	f	16r	.	16r	16r	.
.	.	.	.	.	.	.	.	.	.	.	16e'/	.	16g\LL	f	16GG\LL	16G\LL	f
.	.	.	.	.	.	.	.	.	.	.	16g'/	.	16e\	.	16EE\	16E\	.
.	.	.	.	.	.	.	.	.	.	.	16e'/JJ	.	16c\JJ	.	16CC\JJ	16C\JJ	.
.	.	.	.	.	.	.	.	.	16r	.	16c'/LL	p	4G/	p	4GGG/	4GG/	p
!	!	!	!	!	!	!	!	!	! 32ff#P/	!	!	!	!	!	!	!	!
.	.	.	.	.	.	.	.	.	16ggp\LL	p	16e'/	.	.	.	.	.	.
!	!	!	!	!	!	!	!	!	! 32ff#P/	!	!	!	!	!	!	!	!
.	.	.	.	.	.	.	.	.	16ggp\	.	16g'/	.	.	.	.	.	.
!	!	!	!	!	!	!	!	!	! 32ff#P/	!	!	!	!	!	!	!	!
.	.	.	.	.	.	.	.	.	16ggp\JJ	.	16e'/JJ	.	.	.	.	.	.
=6	=6	=6	=6	=6	=6	=6	=6	=6	=6	=6	=6	=6	=6	=6	=6	=6	=6
2ee/]	2cc\]	.	2e/]	2c\]	.	2cc/_	2c\_	.	(16ccc\LL	.	16c/LL	.	2r	.	2r	2r	.
.	.	.	.	.	.	.	.	.	16gg\JJ)	.	16e/	.	.	.	.	.	.
.	.	.	.	.	.	.	.	.	16r	.	16g/	.	.	.	.	.	.
.	.	.	.	.	.	.	.	.	16ggT\	.	16e/JJ	.	.	.	.	.	.
.	.	.	.	.	.	.	.	.	(16ccc\LL	.	16c/LL	.	.	.	.	.	.
.	.	.	.	.	.	.	.	.	16gg\)	.	16e/	.	.	.	.	.	.
.	.	.	.	.	.	.	.	.	(16gg\	.	16g/	.	.	.	.	.	.
.	.	.	.	.	.	.	.	.	16ee\JJ)	.	16e/JJ	.	.	.	.	.	.
=7	=7	=7	=7	=7	=7	=7	=7	=7	=7	=7	=7	=7	=7	=7	=7	=7	=7
[2ddz/	[2b\	zp	[2dz/	[2B\	zp	2ccz/_	2c\_	zp	4dd/ 4d/ 4G/	f	16B/LL	f	16r	.	16r	16r	.
.	.	.	.	.	.	.	.	.	.	.	16d/	.	16g\LL	f	16GG\LL	16G\LL	f
.	.	.	.	.	.	.	.	.	.	.	16g/	.	16d\	.	16DD\	16D\	.
.	.	.	.	.	.	.	.	.	.	.	16d/JJ	.	16B\JJ	.	16BBB\JJ	16BB\JJ	.
.	.	.	.	.	.	.	.	.	16r	.	16B/LL	p	4G/	p	4GGG/	4GG/	p
!	!	!	!	!	!	!	!	!	! 32ff#P/	!	!	!	!	!	!	!	!
.	.	.	.	.	.	.	.	.	16ggp\LL	p	16d/	.	.	.	.	.	.
!	!	!	!	!	!	!	!	!	! 32ff#P/	!	!	!	!	!	!	!	!
.	.	.	.	.	.	.	.	.	16ggp\	.	16g/	.	.	.	.	.	.
!	!	!	!	!	!	!	!	!	! 32ff#P/	!	!	!	!	!	!	!	!
.	.	.	.	.	.	.	.	.	16ggp\JJ	.	16d/JJ	.	.	.	.	.	.
=8	=8	=8	=8	=8	=8	=8	=8	=8	=8	=8	=8	=8	=8	=8	=8	=8	=8
2dd/]	2b\]	.	2d/]	2B\]	.	2cc/]	2c\]	.	(16bb\LL	.	16B/LL	.	2r	.	2r	2r	.
.	.	.	.	.	.	.	.	.	16gg\JJ)	.	16d/	.	.	.	.	.	.
.	.	.	.	.	.	.	.	.	16r	.	16g/	.	.	.	.	.	.
.	.	.	.	.	.	.	.	.	16ggT\	.	16d/JJ	.	.	.	.	.	.
.	.	.	.	.	.	.	.	.	(16bb\LL	.	16B/LL	.	.	.	.	.	.
.	.	.	.	.	.	.	.	.	16gg\)	.	16d/	.	.	.	.	.	.
.	.	.	.	.	.	.	.	.	(16gg\	.	16g/	.	.	.	.	.	.
.	.	.	.	.	.	.	.	.	16dd\JJ)	.	16d/JJ	.	.	.	.	.	.
=9	=9	=9	=9	=9	=9	=9	=9	=9	=9	=9	=9	=9	=9	=9	=9	=9	=9
8r	2r	.	2r	2r	.	2r	2r	.	(2cc#\	.	16A/LL	.	8a\	p	8AA\	8A\	p
.	.	.	.	.	.	.	.	.	.	.	16e/	.	.	.	.	.	.
(4b-/	.	fp	.	.	.	.	.	.	.	.	16g/	.	8r	.	8r	8r	.
.	.	.	.	.	.	.	.	.	.	.	16e/JJ	.	.	.	.	.	.
.	.	.	.	.	.	.	.	.	.	.	16A/LL	.	8a\	.	8AA\	8A\	.
.	.	.	.	.	.	.	.	.	.	.	16e/	.	.	.	.	.	.
8a/)	.	.	.	.	.	.	.	.	.	.	16g/	.	8r	.	8r	8r	.
.	.	.	.	.	.	.	.	.	.	.	16e/JJ	.	.	.	.	.	.
=10	=10	=10	=10	=10	=10	=10	=10	=10	=10	=10	=10	=10	=10	=10	=10	=10	=10
2r	2r	.	8r	2r	.	2r	2r	.	2ccn\)	.	16A/LL	.	8d\	.	8DD\	8D\	.
.	.	.	.	.	.	.	.	.	.	.	16f#/	.	.	.	.	.	.
.	.	.	(4e-/	.	fp	.	.	.	.	.	16a/	.	8r	.	8r	8r	.
.	.	.	.	.	.	.	.	.	.	.	16f#/JJ	.	.	.	.	.	.
.	.	.	.	.	.	.	.	.	.	.	16A/LL	.	8d\	.	8DD\	8D\	.
.	.	.	.	.	.	.	.	.	.	.	16f#/	.	.	.	.	.	.
.	.	.	8d/)	.	.	.	.	.	.	.	16a/	.	8r	.	8r	8r	.
.	.	.	.	.	.	.	.	.	.	.	16f#/JJ	.	.	.	.	.	.
=11	=11	=11	=11	=11	=11	=11	=11	=11	=11	=11	=11	=11	=11	=11	=11	=11	=11
16r	16r	.	16r	16r	.	2r	2r	.	(4b\	.	(2g/	.	(4d\	.	8GG\	8G\	.
16bn/LL	(16g'\LL	.	(16d'/LL	16G\LL	.	.	.	.	.	.	.	.	.	.	.	.	.
16b/	16g'\	.	16d'/	16G\	.	.	.	.	.	.	.	.	.	.	8r	8r	.
16b/JJ	16g'\JJ)	.	16d'/JJ)	16G\JJ	.	.	.	.	.	.	.	.	.	.	.	.	.
16r	16r	.	16r	16r	.	.	.	.	4b-\)	.	.	.	4e\ 4c#\)	.	8CC#/	8C#/	.
16b-/LL	(16g'\LL	.	(16en'/LL	16C#\LL	.	.	.	.	.	.	.	.	.	.	.	.	.
16b-/	16g'\	.	16e'/	16C#\	.	.	.	.	.	.	.	.	.	.	8r	8r	.
16b-/JJ	16g'\JJ)	.	16e'/JJ)	16C#\JJ	.	.	.	.	.	.	.	.	.	.	.	.	.
=12	=12	=12	=12	=12	=12	=12	=12	=12	=12	=12	=12	=12	=12	=12	=12	=12	=12
*	*	*	*v	*v	*	*	*	*	*	*	*	*	*	*	*	*	*
4a/	4f#\	.	16d\ 16D\LL	.	[2g/	[2G\	p	8a/	.	8f#/)	.	8d\	.	8DD\	8D\	.
!	!	!	! a 2	!	!	!	!	!	!	!	!	!	!	!	!	!
.	.	.	16F#\	.	.	.	.	.	.	.	.	.	.	.	.	.
.	.	.	16A\	.	.	.	.	32r	.	32r	.	8r	.	8r	8r	.
.	.	.	.	.	.	.	.	(32gg#\LLL	.	(32g#/LLL	.	.	.	.	.	.
.	.	.	16F#\JJ	.	.	.	.	32aa\	.	32a/	.	.	.	.	.	.
.	.	.	.	.	.	.	.	32gg#\JJJ	.	32g#/JJJ	.	.	.	.	.	.
4r	4r	.	16D\LL	.	.	.	.	32aa\LLL	.	32a/LLL	.	8d\	.	8DD\	8D\	.
.	.	.	.	.	.	.	.	32gg#\	.	32g#/	.	.	.	.	.	.
.	.	.	16F#\	.	.	.	.	32aa\	.	32a/	.	.	.	.	.	.
.	.	.	.	.	.	.	.	32gg#\JJJ	.	32g#/JJJ	.	.	.	.	.	.
.	.	.	16A\	.	.	.	.	32aa\LLL	.	32a/LLL	.	8r	.	8r	8r	.
.	.	.	.	.	.	.	.	32ff#\	.	32f#/	.	.	.	.	.	.
.	.	.	16F#\JJ	.	.	.	.	32dd\	.	32d/	.	.	.	.	.	.
.	.	.	.	.	.	.	.	32cc\JJJ)	.	32c/JJJ)	.	.	.	.	.	.
=13	=13	=13	=13	=13	=13	=13	=13	=13	=13	=13	=13	=13	=13	=13	=13	=13
2r	2r	.	16D\LL	.	2g/_	2G\_	.	(32.b\LLL	.	(32.B/LLL	.	8d\	.	8DD\	8D\	.
.	.	.	.	.	.	.	.	64dd\Jk	.	64d/Jk	.	.	.	.	.	.
.	.	.	16G\	.	.	.	.	16ggn\JJ)	.	16gn/JJ)	.	.	.	.	.	.
.	.	.	16B\	.	.	.	.	32r	.	32r	.	8r	.	8r	8r	.
.	.	.	.	.	.	.	.	(32gg\LLL	.	(32g/LLL	.	.	.	.	.	.
.	.	.	16G\JJ	.	.	.	.	32bb\	.	32b/	.	.	.	.	.	.
.	.	.	.	.	.	.	.	32aa\JJJ)	.	32a/JJJ)	.	.	.	.	.	.
!	!	!	!	!	!	!	!	! 32aaP/	!	! 32aP/	!	!	!	!	!	!
.	.	.	16D\LL	.	.	.	.	(16ggp\LL	.	(16gp/LL	.	8d\	.	8DD\	8D\	.
.	.	.	16G\	.	.	.	.	32ff#\L	.	32f#/L	.	.	.	.	.	.
.	.	.	.	.	.	.	.	32ee\JJJ)	.	32e/JJJ)	.	.	.	.	.	.
!	!	!	!	!	!	!	!	! 32eeP/	!	! 32eP/	!	!	!	!	!	!
.	.	.	16B\	.	.	.	.	(16ddp\LL	.	(16dp/LL	.	8r	.	8r	8r	.
.	.	.	16G\JJ	.	.	.	.	32cc\L	.	32c/L	.	.	.	.	.	.
.	.	.	.	.	.	.	.	32b\JJJ)	.	32B/JJJ)	.	.	.	.	.	.
=14	=14	=14	=14	=14	=14	=14	=14	=14	=14	=14	=14	=14	=14	=14	=14	=14
(2a/	(2f#\	p	16D\LL	.	2g/_	2G\_	.	(32.dd\LLL	.	(32.d/LLL	.	8d\	.	8DD\	8D\	.
.	.	.	.	.	.	.	.	64b\Jk	.	64B/Jk	.	.	.	.	.	.
.	.	.	16F#\	.	.	.	.	16a\JJ)	.	16A/JJ)	.	.	.	.	.	.
.	.	.	16A\	.	.	.	.	32r	.	32r	.	8r	.	8r	8r	.
.	.	.	.	.	.	.	.	(32gg#\LLL	.	(32g#/LLL	.	.	.	.	.	.
.	.	.	16F#\JJ	.	.	.	.	32aa\	.	32a/	.	.	.	.	.	.
.	.	.	.	.	.	.	.	32gg#\JJJ	.	32g#/JJJ	.	.	.	.	.	.
.	.	.	16D\LL	.	.	.	.	32aa\LLL	.	32a/LLL	.	8d\	.	8DD\	8D\	.
.	.	.	.	.	.	.	.	32gg#\	.	32g#/	.	.	.	.	.	.
.	.	.	16F#\	.	.	.	.	32aa\	.	32a/	.	.	.	.	.	.
.	.	.	.	.	.	.	.	32gg#\JJJ	.	32g#/JJJ	.	.	.	.	.	.
.	.	.	16A\	.	.	.	.	32aa\LLL	.	32a/LLL	.	8r	.	8r	8r	.
.	.	.	.	.	.	.	.	32ff#\	.	32f#/	.	.	.	.	.	.
.	.	.	16F#\JJ	.	.	.	.	32dd\	.	32d/	.	.	.	.	.	.
.	.	.	.	.	.	.	.	32cc\JJJ)	.	32c/JJJ)	.	.	.	.	.	.
=15	=15	=15	=15	=15	=15	=15	=15	=15	=15	=15	=15	=15	=15	=15	=15	=15
[2b/)	[2g\)	.	16D\LL	.	2g/_	2G\_	.	(32.b\LLL	.	(32.B/LLL	.	8d\	.	8DD\	8D\	.
.	.	.	.	.	.	.	.	64dd\Jk	.	64d/Jk	.	.	.	.	.	.
.	.	.	16G\	.	.	.	.	16ggn\JJ)	.	16gn/JJ)	.	.	.	.	.	.
.	.	.	16B\	.	.	.	.	32r	.	32r	.	8r	.	8r	8r	.
.	.	.	.	.	.	.	.	(32gg\LLL	.	(32g/LLL	.	.	.	.	.	.
.	.	.	16G\JJ	.	.	.	.	32bb\	.	32b/	.	.	.	.	.	.
.	.	.	.	.	.	.	.	32aa\JJJ)	.	32a/JJJ)	.	.	.	.	.	.
!	!	!	!	!	!	!	!	! 32aaP/	!	! 32aP/	!	!	!	!	!	!
.	.	.	16D\LL	.	.	.	.	(16ggp\LL	.	(16gp/LL	.	8d\	.	8DD\	8D\	.
.	.	.	16G\	.	.	.	.	32ff#\L	.	32f#/L	.	.	.	.	.	.
.	.	.	.	.	.	.	.	32ee\JJJ)	.	32e/JJJ)	.	.	.	.	.	.
!	!	!	!	!	!	!	!	! 32eeP/	!	! 32eP/	!	!	!	!	!	!
.	.	.	16B\	.	.	.	.	(16ddp\LL	.	(16dp/LL	.	8r	.	8r	8r	.
.	.	.	16G\JJ	.	.	.	.	32cc\L	.	32c/L	.	.	.	.	.	.
.	.	.	.	.	.	.	.	32b\JJJ)	.	32B/JJJ)	.	.	.	.	.	.
=16	=16	=16	=16	=16	=16	=16	=16	=16	=16	=16	=16	=16	=16	=16	=16	=16
8b/L]	(8g\L]	.	(16.B\LL	.	8g/L]	8G\L]	.	(16.dd\LL	.	(16.d/LL	.	8d\L	.	8DD\L	8D\L	.
.	.	.	32G\k)	.	.	.	.	32b\k)	.	32B/k)	.	.	.	.	.	.
8a/J	8f#\J)	.	16F#'\	.	8g/J	8G\J	.	16a'\	.	16A'/	.	8d\	.	8DD\	8D\	.
.	.	.	16F#'\JJ	.	.	.	.	16a'\JJ	.	16A'/JJ	.	.	.	.	.	.
8a/	8f#\	.	8F#\	.	8g/	8G\	.	8a/	.	8A/	.	8d\J	.	8DD\J	8D\J	.
8r	8r	.	8r	.	8r	8r	.	8r	.	8r	.	8r	.	8r	8r	.
=17	=17	=17	=17	=17	=17	=17	=17	=17	=17	=17	=17	=17	=17	=17	=17	=17
*	*	*	*^	*	*	*	*	*	*	*	*	*	*	*	*	*
2r	2r	.	2r	2r	.	2r	2r	.	16aa'\LL	.	2r	.	2r	.	2r	2r	.
.	.	.	.	.	.	.	.	.	16aa'\	.	.	.	.	.	.	.	.
.	.	.	.	.	.	.	.	.	16aa'\	.	.	.	.	.	.	.	.
.	.	.	.	.	.	.	.	.	16aa'\JJ	.	.	.	.	.	.	.	.
.	.	.	.	.	.	.	.	.	16aa'\LL	.	.	.	.	.	.	.	.
.	.	.	.	.	.	.	.	.	16aa'\	.	.	.	.	.	.	.	.
.	.	.	.	.	.	.	.	.	16aa'\	.	.	.	.	.	.	.	.
.	.	.	.	.	.	.	.	.	16aa'\JJ	.	.	.	.	.	.	.	.
=18	=18	=18	=18	=18	=18	=18	=18	=18	=18	=18	=18	=18	=18	=18	=18	=18	=18
2r	2r	.	2r	2r	.	2r	2r	.	16aa\LL	.	(32f#/LLL	p	(32d\LLL	.	8r	8r	.
.	.	.	.	.	.	.	.	.	.	.	32a/)	.	32A\)	.	.	.	.
.	.	.	.	.	.	.	.	.	16aa\	.	32dd'/	.	32f#'\	.	.	.	.
.	.	.	.	.	.	.	.	.	.	.	32dd'/JJJ	.	32f#'\JJJ	.	.	.	.
.	.	.	.	.	.	.	.	.	16aa\	.	16dd'\	.	16f#'\	.	8DD'/L	8D'/L	p
.	.	.	.	.	.	.	.	.	16aa\JJ	.	16r	.	16r	.	.	.	.
.	.	.	.	.	.	.	.	.	16aa\LL	.	(32cc#\LLL	.	(32g\LLL	.	8EE'/	8E'/	.
.	.	.	.	.	.	.	.	.	.	.	32ee\)	.	32e\)	.	.	.	.
.	.	.	.	.	.	.	.	.	16aa\	.	32gg'\	.	32c#'\	.	.	.	.
.	.	.	.	.	.	.	.	.	.	.	32gg'\JJJ	.	32c#'\JJJ	.	.	.	.
.	.	.	.	.	.	.	.	.	16aa\	.	16gg'\	.	16c#'\	.	8AAA'/J	8AA'/J	.
.	.	.	.	.	.	.	.	.	16aa\JJ	.	16r	.	16r	.	.	.	.
=19	=19	=19	=19	=19	=19	=19	=19	=19	=19	=19	=19	=19	=19	=19	=19	=19	=19
2r	2r	.	2r	2r	.	2r	2r	.	16aa\LL	.	(32ff#\LLL	.	(32d\LLL	.	8r	8r	.
.	.	.	.	.	.	.	.	.	.	.	32gg\)	.	32e\)	.	.	.	.
.	.	.	.	.	.	.	.	.	16aa\	.	32aa'\	.	32f#'\	.	.	.	.
.	.	.	.	.	.	.	.	.	.	.	32aa'\JJJ	.	32f#'\JJJ	.	.	.	.
.	.	.	.	.	.	.	.	.	16aa\	.	(32gg\LLL	.	(32b\LLL	.	8DD'\L	8D'\L	.
.	.	.	.	.	.	.	.	.	.	.	32ff#\)	.	32a\)	.	.	.	.
.	.	.	.	.	.	.	.	.	16aa\JJ	.	32ee'\	.	32g'\	.	.	.	.
.	.	.	.	.	.	.	.	.	.	.	32dd'\JJJ	.	32f#'\JJJ	.	.	.	.
.	.	.	.	.	.	.	.	.	16aa\LL	.	(32dd\LLL	.	(32f#\LLL	.	8AA'\	8A'\	.
.	.	.	.	.	.	.	.	.	.	.	32cc#\)	.	32e\)	.	.	.	.
.	.	.	.	.	.	.	.	.	16aa\	.	32b'\	.	32g'\	.	.	.	.
.	.	.	.	.	.	.	.	.	.	.	32a'\JJJ	.	32f#'\JJJ	.	.	.	.
.	.	.	.	.	.	.	.	.	16aa\	.	(32a/LLL	.	(32f#\LLL	.	8AAA'\J	8AA'\J	.
.	.	.	.	.	.	.	.	.	.	.	32g/)	.	32e\)	.	.	.	.
.	.	.	.	.	.	.	.	.	16aa\JJ	.	32f#'/	.	32d'\	.	.	.	.
.	.	.	.	.	.	.	.	.	.	.	32e'/JJJ	.	32c#'\JJJ	.	.	.	.
=20	=20	=20	=20	=20	=20	=20	=20	=20	=20	=20	=20	=20	=20	=20	=20	=20	=20
2r	2r	.	2r	2r	.	2r	2r	.	16aa\LL	.	(32f#/LLL	.	(32d\LLL	.	8r	8r	.
.	.	.	.	.	.	.	.	.	.	.	32a/)	.	32A\)	.	.	.	.
.	.	.	.	.	.	.	.	.	16aa\	.	32dd'/	.	32f#'\	.	.	.	.
.	.	.	.	.	.	.	.	.	.	.	32dd'/JJJ	.	32f#'\JJJ	.	.	.	.
.	.	.	.	.	.	.	.	.	16aa\	.	16dd'\	.	16f#'\	.	8DD'/L	8D'/L	.
.	.	.	.	.	.	.	.	.	16aa\JJ	.	16r	.	16r	.	.	.	.
.	.	.	.	.	.	.	.	.	16aa\LL	.	(32cc#\LLL	.	(32g\LLL	.	8EE'/	8E'/	.
.	.	.	.	.	.	.	.	.	.	.	32ee\)	.	32e\)	.	.	.	.
.	.	.	.	.	.	.	.	.	16aa\	.	32gg'\	.	32c#'\	.	.	.	.
.	.	.	.	.	.	.	.	.	.	.	32gg'\JJJ	.	32c#'\JJJ	.	.	.	.
.	.	.	.	.	.	.	.	.	16aa\	.	16gg'\	.	16c#'\	.	8AAA'/J	8AA'/J	.
.	.	.	.	.	.	.	.	.	16aa\JJ	.	16r	.	16r	.	.	.	.
=21	=21	=21	=21	=21	=21	=21	=21	=21	=21	=21	=21	=21	=21	=21	=21	=21	=21
2r	2r	.	2r	2r	.	2r	2r	.	16aa\LL	.	(32ff#\LLL	.	(32d\LLL	.	8r	8r	.
.	.	.	.	.	.	.	.	.	.	.	32gg\)	.	32e\)	.	.	.	.
.	.	.	.	.	.	.	.	.	16aa\	.	32aa'\	.	32f#'\	.	.	.	.
.	.	.	.	.	.	.	.	.	.	.	32aa'\JJJ	.	32f#'\JJJ	.	.	.	.
.	.	.	.	.	.	.	.	.	16aa\	.	(32gg\LLL	.	(32b\LLL	.	8DD'\L	8D'\L	.
.	.	.	.	.	.	.	.	.	.	.	32ff#\)	.	32a\)	.	.	.	.
.	.	.	.	.	.	.	.	.	16aa\JJ	.	32ee'\	.	32g'\	.	.	.	.
.	.	.	.	.	.	.	.	.	.	.	32dd'\JJJ	.	32f#'\JJJ	.	.	.	.
.	.	.	.	.	.	.	.	.	16aa\LL	.	(32dd\LLL	.	(32f#\LLL	.	8AA'\	8A'\	.
.	.	.	.	.	.	.	.	.	.	.	32cc#\)	.	32e\)	.	.	.	.
.	.	.	.	.	.	.	.	.	16aa\	.	32b'\	.	32g'\	.	.	.	.
.	.	.	.	.	.	.	.	.	.	.	32a'\JJJ	.	32f#'\JJJ	.	.	.	.
.	.	.	.	.	.	.	.	.	16aa\	.	(32a/LLL	.	(32f#\LLL	.	8AAA'\J	8AA'\J	.
.	.	.	.	.	.	.	.	.	.	.	32g/)	.	32e\)	.	.	.	.
.	.	.	.	.	.	.	.	.	16aa\JJ	.	32f#'/	.	32d'\	.	.	.	.
.	.	.	.	.	.	.	.	.	.	.	32e'/JJJ	.	32c#'\JJJ	.	.	.	.
=22	=22	=22	=22	=22	=22	=22	=22	=22	=22	=22	=22	=22	=22	=22	=22	=22	=22
*	*	*	*v	*v	*	*	*	*	*	*	*	*	*	*	*	*	*
[2aa/	[2cc\	f	16F#\LL	f	[2g/	[2G\	f	8.aa\L	f	(32d/LLL	f	16A/LL	f	16FF#\LL	16F#\LL	f
.	.	.	.	.	.	.	.	.	.	32cn/	.	.	.	.	.	.
.	.	.	16F#\	.	.	.	.	.	.	32d/	.	16A/	.	16FF#\	16F#\	.
.	.	.	.	.	.	.	.	.	.	32c/JJJ	.	.	.	.	.	.
.	.	.	16F#\	.	.	.	.	.	.	32d/LLL	.	16A/	.	16FF#\	16F#\	.
.	.	.	.	.	.	.	.	.	.	32c/	.	.	.	.	.	.
.	.	.	16F#\JJ	.	.	.	.	32ff#\LL	.	32d/	.	16A/JJ	.	16FF#\JJ	16F#\JJ	.
.	.	.	.	.	.	.	.	32aa\JJJ	.	32c/JJJ)	.	.	.	.	.	.
.	.	.	16F#\LL	.	.	.	.	[4cccn\	.	(32d/LLL	.	16A/LL	.	16FF#\LL	16F#\LL	.
.	.	.	.	.	.	.	.	.	.	32c/	.	.	.	.	.	.
.	.	.	16F#\	.	.	.	.	.	.	32d/	.	16A/	.	16FF#\	16F#\	.
.	.	.	.	.	.	.	.	.	.	32c/JJJ	.	.	.	.	.	.
.	.	.	16F#\	.	.	.	.	.	.	32d/LLL	.	16A/	.	16FF#\	16F#\	.
.	.	.	.	.	.	.	.	.	.	32c/	.	.	.	.	.	.
.	.	.	16F#\JJ	.	.	.	.	.	.	32d/	.	16A/JJ	.	16FF#\JJ	16F#\JJ	.
.	.	.	.	.	.	.	.	.	.	32c/JJJ)	.	.	.	.	.	.
=23	=23	=23	=23	=23	=23	=23	=23	=23	=23	=23	=23	=23	=23	=23	=23	=23
*	*	*	*	*	*v	*v	*	*	*	*	*	*	*	*	*	*
(4aa/]	(4cc\]	.	16F#\LL	.	(2g/ 2G/]_	.	(16ccc\LL]	.	(32d/LLL	.	16A/LL	.	16FF#\LL	16F#\LL	.
.	.	.	.	.	.	.	.	.	32c/	.	.	.	.	.	.
.	.	.	16F#\	.	.	.	16aa\	.	32d/	.	16A/	.	16FF#\	16F#\	.
.	.	.	.	.	.	.	.	.	32c/JJJ	.	.	.	.	.	.
.	.	.	16F#\	.	.	.	16ff#\	.	32d/LLL	.	16A/	.	16FF#\	16F#\	.
.	.	.	.	.	.	.	.	.	32c/	.	.	.	.	.	.
.	.	.	16F#\JJ	.	.	.	16dd\JJ)	.	32d/	.	16A/JJ	.	16FF#\JJ	16F#\JJ	.
.	.	.	.	.	.	.	.	.	32c/JJJ)	.	.	.	.	.	.
4ccc/)	4aa\)	.	16F#\LL	.	.	.	(16cc/LL	.	(32d/LLL	.	16A/LL	.	16FF#\LL	16F#\LL	.
.	.	.	.	.	.	.	.	.	32c/	.	.	.	.	.	.
.	.	.	16F#\	.	.	.	16a/	.	32d/	.	16A/	.	16FF#\	16F#\	.
.	.	.	.	.	.	.	.	.	32c/JJJ	.	.	.	.	.	.
.	.	.	16F#\	.	.	.	16f#/	.	32d/LLL	.	16A/	.	16FF#\	16F#\	.
.	.	.	.	.	.	.	.	.	32c/)	.	.	.	.	.	.
.	.	.	16F#\JJ	.	.	.	16c/JJ)	.	32d'/	.	16A/JJ	.	16FF#\JJ	16F#\JJ	.
.	.	.	.	.	.	.	.	.	32d'/JJJ	.	.	.	.	.	.
=24	=24	=24	=24	=24	=24	=24	=24	=24	=24	=24	=24	=24	=24	=24	=24
*	*	*	*	*	*^	*	*	*	*	*	*	*	*	*	*
4bb/	4gg\	.	4G\	.	4g/]	4c\)	.	16B/	.	4d/	.	4G/	.	4GG\	4G\	.
.	.	.	.	.	.	.	.	16bb\LL	p	.	.	.	.	.	.	.
.	.	.	.	.	.	.	.	16bb\	.	.	.	.	.	.	.	.
.	.	.	.	.	.	.	.	16bb\JJ	.	.	.	.	.	.	.	.
4r	4r	.	4r	.	4r	4r	.	16bb\LL	.	4r	.	4r	.	4r	4r	.
.	.	.	.	.	.	.	.	16bb\	.	.	.	.	.	.	.	.
.	.	.	.	.	.	.	.	16bb\	.	.	.	.	.	.	.	.
.	.	.	.	.	.	.	.	16bb\JJ	.	.	.	.	.	.	.	.
=25	=25	=25	=25	=25	=25	=25	=25	=25	=25	=25	=25	=25	=25	=25	=25	=25
2r	2r	.	16A\LL	p	2r	2r	.	(4.dd\	.	(4.f#/	p	4.a\	p	16AA\LL	16A\LL	p
.	.	.	16A\	.	.	.	.	.	.	.	.	.	.	16AA\	16A\	.
.	.	.	16A\	.	.	.	.	.	.	.	.	.	.	16AA\	16A\	.
.	.	.	16A\JJ	.	.	.	.	.	.	.	.	.	.	16AA\JJ	16A\JJ	.
.	.	.	16A\LL	.	.	.	.	.	.	.	.	.	.	16AA\LL	16A\LL	.
.	.	.	16A\	.	.	.	.	.	.	.	.	.	.	16AA\	16A\	.
.	.	.	16A\	.	.	.	.	32ff#P/	.	32aP/	.	8c#\	.	16AA\	16A\	.
.	.	.	.	.	.	.	.	16eep\LL	.	16gp/LL	.	.	.	.	.	.
.	.	.	16A\JJ	.	.	.	.	.	.	.	.	.	.	16AA\JJ	16A\JJ	.
.	.	.	.	.	.	.	.	32dd\JJk)	.	32f#/JJk)	.	.	.	.	.	.
=26	=26	=26	=26	=26	=26	=26	=26	=26	=26	=26	=26	=26	=26	=26	=26	=26
[2aa/	[2cc\	f	16F#\LL	f	[2g/	[2G\	f	8.aa\L	f	(32d/LLL	.	16A/LL	f	16FF#\LL	16F#\LL	f
.	.	.	.	.	.	.	.	.	.	32cn/	.	.	.	.	.	.
.	.	.	16F#\	.	.	.	.	.	.	32d/	.	16A/	.	16FF#\	16F#\	.
.	.	.	.	.	.	.	.	.	.	32c/JJJ	.	.	.	.	.	.
.	.	.	16F#\	.	.	.	.	.	.	32d/LLL	.	16A/	.	16FF#\	16F#\	.
.	.	.	.	.	.	.	.	.	.	32c/	.	.	.	.	.	.
.	.	.	16F#\JJ	.	.	.	.	32ff#\LL	.	32d/	.	16A/JJ	.	16FF#\JJ	16F#\JJ	.
.	.	.	.	.	.	.	.	32aa\JJJ	.	32c/JJJ)	.	.	.	.	.	.
.	.	.	16F#\LL	.	.	.	.	[4ccc\	.	(32d/LLL	.	16A/LL	.	16FF#\LL	16F#\LL	.
.	.	.	.	.	.	.	.	.	.	32c/	.	.	.	.	.	.
.	.	.	16F#\	.	.	.	.	.	.	32d/	.	16A/	.	16FF#\	16F#\	.
.	.	.	.	.	.	.	.	.	.	32c/JJJ	.	.	.	.	.	.
.	.	.	16F#\	.	.	.	.	.	.	32d/LLL	.	16A/	.	16FF#\	16F#\	.
.	.	.	.	.	.	.	.	.	.	32c/	.	.	.	.	.	.
.	.	.	16F#\JJ	.	.	.	.	.	.	32d/	.	16A/JJ	.	16FF#\JJ	16F#\JJ	.
.	.	.	.	.	.	.	.	.	.	32c/JJJ)	.	.	.	.	.	.
=27	=27	=27	=27	=27	=27	=27	=27	=27	=27	=27	=27	=27	=27	=27	=27	=27
*	*	*	*	*	*v	*v	*	*	*	*	*	*	*	*	*	*
(4aa/]	(4cc\]	.	16F#\LL	.	(2g/ 2G/]_	.	(32ccc\LLL]	.	(32d/LLL	.	16A/LL	.	16FF#\LL	16F#\LL	.
.	.	.	.	.	.	.	32aa\)	.	32c/	.	.	.	.	.	.
.	.	.	16F#\	.	.	.	(32aa\	.	32d/	.	16A/	.	16FF#\	16F#\	.
.	.	.	.	.	.	.	32ff#\JJJ)	.	32c/JJJ	.	.	.	.	.	.
.	.	.	16F#\	.	.	.	(32ff#\LLL	.	32d/LLL	.	16A/	.	16FF#\	16F#\	.
.	.	.	.	.	.	.	32dd\)	.	32c/	.	.	.	.	.	.
.	.	.	16F#\JJ	.	.	.	(32dd\	.	32d/	.	16A/JJ	.	16FF#\JJ	16F#\JJ	.
.	.	.	.	.	.	.	32cc\JJJ)	.	32c/JJJ)	.	.	.	.	.	.
4ccc/)	4aa\)	.	16F#\LL	.	.	.	(32cc/LLL	.	(32d/LLL	.	16A/LL	.	16FF#\LL	16F#\LL	.
.	.	.	.	.	.	.	32a/)	.	32c/	.	.	.	.	.	.
.	.	.	16F#\	.	.	.	(32a/	.	32d/	.	16A/	.	16FF#\	16F#\	.
.	.	.	.	.	.	.	32f#/JJJ)	.	32c/JJJ	.	.	.	.	.	.
.	.	.	16F#\	.	.	.	(32f#/LLL	.	32d/LLL	.	16A/	.	16FF#\	16F#\	.
.	.	.	.	.	.	.	32d/)	.	32c/)	.	.	.	.	.	.
.	.	.	16F#\JJ	.	.	.	(32d/	.	32d'/	.	16A/JJ	.	16FF#\JJ	16F#\JJ	.
.	.	.	.	.	.	.	32c/JJJ)	.	32d'/JJJ	.	.	.	.	.	.
=28	=28	=28	=28	=28	=28	=28	=28	=28	=28	=28	=28	=28	=28	=28	=28
*	*	*	*	*	*^	*	*	*	*	*	*	*	*	*	*
8bb/	8gg\	.	8G\	.	4g/]	4c\)	.	(32B/LLL	.	4d/	.	4G/	.	8GG\	8G\	.
.	.	.	.	.	.	.	.	32c#/	p	.	.	.	.	.	.	.
.	.	.	.	.	.	.	.	32d/	.	.	.	.	.	.	.	.
.	.	.	.	.	.	.	.	32c#/JJJ	.	.	.	.	.	.	.	.
8r	8r	.	8r	.	.	.	.	32d/LLL	.	.	.	.	.	8r	8r	.
.	.	.	.	.	.	.	.	32d#/	.	.	.	.	.	.	.	.
.	.	.	.	.	.	.	.	32e/	.	.	.	.	.	.	.	.
.	.	.	.	.	.	.	.	32d#/JJJ	.	.	.	.	.	.	.	.
4r	4r	.	4r	.	4r	4r	.	32e/LLL	.	4r	.	4r	.	4r	4r	.
.	.	.	.	.	.	.	.	32f#/	.	.	.	.	.	.	.	.
.	.	.	.	.	.	.	.	32g/	.	.	.	.	.	.	.	.
.	.	.	.	.	.	.	.	32f#/JJJ	.	.	.	.	.	.	.	.
.	.	.	.	.	.	.	.	32g/LLL	.	.	.	.	.	.	.	.
.	.	.	.	.	.	.	.	32a#/	.	.	.	.	.	.	.	.
.	.	.	.	.	.	.	.	32b/	.	.	.	.	.	.	.	.
.	.	.	.	.	.	.	.	32a#/JJJ)	.	.	.	.	.	.	.	.
=29	=29	=29	=29	=29	=29	=29	=29	=29	=29	=29	=29	=29	=29	=29	=29	=29
2r	2r	.	[2G\	.	2r	2r	.	(32b\LLL	.	2b/ 2d/	p	2e\	p	[2GG\	[2G\	p
.	.	.	.	.	.	.	.	32cc#\	.	.	.	.	.	.	.	.
.	.	.	.	.	.	.	.	32dd\	.	.	.	.	.	.	.	.
.	.	.	.	.	.	.	.	32cc#\JJJ	.	.	.	.	.	.	.	.
.	.	.	.	.	.	.	.	32dd\LLL	.	.	.	.	.	.	.	.
.	.	.	.	.	.	.	.	32dd#\	.	.	.	.	.	.	.	.
.	.	.	.	.	.	.	.	32ee\	.	.	.	.	.	.	.	.
.	.	.	.	.	.	.	.	32dd#\JJJ	.	.	.	.	.	.	.	.
.	.	.	.	.	.	.	.	32ee\LLL	.	.	.	.	.	.	.	.
.	.	.	.	.	.	.	.	32ff#\	.	.	.	.	.	.	.	.
.	.	.	.	.	.	.	.	32gg\	.	.	.	.	.	.	.	.
.	.	.	.	.	.	.	.	32ff#\JJJ	.	.	.	.	.	.	.	.
.	.	.	.	.	.	.	.	32gg\LLL	.	.	.	.	.	.	.	.
.	.	.	.	.	.	.	.	32aa#\	.	.	.	.	.	.	.	.
.	.	.	.	.	.	.	.	32bb\	.	.	.	.	.	.	.	.
.	.	.	.	.	.	.	.	32aa#\JJJ)	.	.	.	.	.	.	.	.
=30	=30	=30	=30	=30	=30	=30	=30	=30	=30	=30	=30	=30	=30	=30	=30	=30
*	*	*	*	*	*	*	*	*	*	*^	*	*	*	*	*	*
2r	2r	.	(4G\]	.	2r	2r	.	(32bb\LLL	.	2dd/	(4e\	.	2b\	.	(4GG\]	(4G\]	.
.	.	.	.	.	.	.	.	32ccc#\	.	.	.	.	.	.	.	.	.
.	.	.	.	.	.	.	.	32ddd\	.	.	.	.	.	.	.	.	.
.	.	.	.	.	.	.	.	32ccc#\JJJ)	.	.	.	.	.	.	.	.	.
.	.	.	.	.	.	.	.	16ddd\LL	.	.	.	.	.	.	.	.	.
.	.	.	.	.	.	.	.	16ddd\JJ	.	.	.	.	.	.	.	.	.
.	.	.	4G#\)	.	.	.	.	16ddd\LL	.	.	4fn\)	.	.	.	4GG#\)	4G#\)	.
.	.	.	.	.	.	.	.	16ddd\	.	.	.	.	.	.	.	.	.
.	.	.	.	.	.	.	.	16ddd\	.	.	.	.	.	.	.	.	.
.	.	.	.	.	.	.	.	16ddd\JJ	.	.	.	.	.	.	.	.	.
=31	=31	=31	=31	=31	=31	=31	=31	=31	=31	=31	=31	=31	=31	=31	=31	=31	=31
*	*	*	*^	*	*	*	*	*	*	*	*	*	*	*	*	*	*
*	*	*	*	*	*	*	*	*	*	*	*v	*v	*	*	*	*	*	*
8r	8r	.	8r	8r	.	[2dd/	[2dd\	p	(16.ddd\LL	.	8dd/ 8f#/	.	(32a\LLL	.	8AA\	8A\	.
.	.	.	.	.	.	.	.	.	.	.	.	.	32f#\	.	.	.	.
.	.	.	.	.	.	.	.	.	.	.	.	.	32d\	.	.	.	.
.	.	.	.	.	.	.	.	.	32aa\Jk)	.	.	.	32f#\JJJ)	.	.	.	.
(8ff#'/L	8dd\L	p	(8f#'/L	8d\L	p	.	.	.	[8aa\J	.	8r	.	(32a\LLL	.	8r	8r	.
.	.	.	.	.	.	.	.	.	.	.	.	.	32f#\	.	.	.	.
.	.	.	.	.	.	.	.	.	.	.	.	.	32d\	.	.	.	.
.	.	.	.	.	.	.	.	.	.	.	.	.	32f#\JJJ)	.	.	.	.
8ff#'/	8dd\	.	8f#'/	8d\	.	.	.	.	16aa\LL]	.	8dd/ 8f#/	.	(32A\LLL	.	8AA\	8A\	.
.	.	.	.	.	.	.	.	.	.	.	.	.	32f#\	.	.	.	.
.	.	.	.	.	.	.	.	.	(32gg#\L	.	.	.	32d\	.	.	.	.
.	.	.	.	.	.	.	.	.	32aa\JJJ	.	.	.	32f#\JJJ)	.	.	.	.
8ff#'/J)	8dd\J	.	8f#'/J)	8d\J	.	.	.	.	32bb\LLL	.	8r	.	(32a\LLL	.	8r	8r	.
.	.	.	.	.	.	.	.	.	32aa\	.	.	.	32f#\	.	.	.	.
.	.	.	.	.	.	.	.	.	32ggn\	.	.	.	32d\	.	.	.	.
.	.	.	.	.	.	.	.	.	32ff#\JJJ)	.	.	.	32f#\JJJ)	.	.	.	.
=32	=32	=32	=32	=32	=32	=32	=32	=32	=32	=32	=32	=32	=32	=32	=32	=32	=32
8r	8r	.	8r	8r	.	2dd/_	(2dd\]	.	2eeT\	.	2cc#t\	.	(32A\LLL	.	8AAA/	8AA/	.
.	.	.	.	.	.	.	.	.	.	.	.	.	32e\	.	.	.	.
.	.	.	.	.	.	.	.	.	.	.	.	.	32c#\	.	.	.	.
.	.	.	.	.	.	.	.	.	.	.	.	.	32e\JJJ	.	.	.	.
(8ee'/L	8cc#\L	.	(8g'/L	8e\L	.	.	.	.	.	.	.	.	32g\LLL	.	8r	8r	.
.	.	.	.	.	.	.	.	.	.	.	.	.	32e\	.	.	.	.
.	.	.	.	.	.	.	.	.	.	.	.	.	32c#\	.	.	.	.
.	.	.	.	.	.	.	.	.	.	.	.	.	32e\JJJ)	.	.	.	.
8ee'/	8cc#\	.	8g'/	8e\	.	.	.	.	.	.	.	.	(32A\LLL	.	8AAA/	8AA/	.
.	.	.	.	.	.	.	.	.	.	.	.	.	32e\	.	.	.	.
.	.	.	.	.	.	.	.	.	.	.	.	.	32c#\	.	.	.	.
.	.	.	.	.	.	.	.	.	.	.	.	.	32e\JJJ	.	.	.	.
8ee'/J)	8cc#\J	.	8g'/J)	8e\J	.	.	.	.	.	.	.	.	32g\LLL	.	8r	8r	.
.	.	.	.	.	.	.	.	.	.	.	.	.	32e\	.	.	.	.
.	.	.	.	.	.	.	.	.	.	.	.	.	32c#\	.	.	.	.
.	.	.	.	.	.	.	.	.	.	.	.	.	32A\JJJ)	.	.	.	.
!	!	!	!	!	!	!	!	!	! (16ddP/LL	!	! (16bP/LL	!	!	!	!	!	!
!	!	!	!	!	!	!	!	!	! 16eeP/JJ)	!	! 16cc#P/JJ)	!	!	!	!	!	!
=33	=33	=33	=33	=33	=33	=33	=33	=33	=33	=33	=33	=33	=33	=33	=33	=33	=33
8dd/	8dd\	.	8f#/	8d\	.	8dd/]	8g\)	.	16ddp'\LL	.	8ddp\	.	8d\	.	8DD\	8D\	.
.	.	.	.	.	.	.	.	.	16ff#'\J	.	.	.	.	.	.	.	.
8r	8r	.	8r	8r	.	8r	8r	.	(8.aa\J	>	8r	.	8r	.	8r	8r	.
4r	4r	.	4r	4r	.	4r	4r	.	.	.	(4cc#\	fp	(8.e\L	fp	(4AA\	(4A\	fp
.	.	.	.	.	.	.	.	.	16gg#\LL)	]	.	.	.	.	.	.	.
.	.	.	.	.	.	.	.	.	(32ggn\L	.	.	.	.	.	.	.	.
.	.	.	.	.	.	.	.	.	32ff#\	.	.	.	.	.	.	.	.
.	.	.	.	.	.	.	.	.	32gg\	.	.	.	16g\Jk)	.	.	.	.
.	.	.	.	.	.	.	.	.	32ee\JJJ)	.	.	.	.	.	.	.	.
=34	=34	=34	=34	=34	=34	=34	=34	=34	=34	=34	=34	=34	=34	=34	=34	=34	=34
16dd'/LL	2r	.	2r	2r	.	2r	2r	.	16dd'/LL	.	8dd\)	.	8f#\	.	8D\)	8d\)	.
16ff#'/J	.	.	.	.	.	.	.	.	16f#'/J	.	.	.	.	.	.	.	.
(8.aa/J	.	>	.	.	.	.	.	.	(8.a/J	>	8r	.	8r	.	8r	8r	.
.	.	.	.	.	.	.	.	.	.	.	(4c#/	fp	(8.E/L	fp	(4AAA/	(4AA/	fp
16gg#/LL)	.	]	.	.	.	.	.	.	16g#/LL)	]	.	.	.	.	.	.	.
(32ggn/L	.	.	.	.	.	.	.	.	(32gn/L	.	.	.	.	.	.	.	.
32ff#/	.	.	.	.	.	.	.	.	32f#/	.	.	.	.	.	.	.	.
32gg/	.	.	.	.	.	.	.	.	32g/	.	.	.	16G/Jk)	.	.	.	.
32ee/JJJ)	.	.	.	.	.	.	.	.	32e/JJJ)	.	.	.	.	.	.	.	.
=35	=35	=35	=35	=35	=35	=35	=35	=35	=35	=35	=35	=35	=35	=35	=35	=35	=35
8dd'/L	8r	.	2r	2r	.	8r	8r	.	8d'/L	.	8d'/L)	.	8F#'/L	.	8DD\L)	8D\L)	.
8ff#'/	8a'\L	.	.	.	.	8g/L	8G\L	.	8f#'/	.	8d'/	.	8D'/	.	8DD'\	8D'\	.
8dd'/J	8f#'\J	.	.	.	.	8g/J	8G\J	.	8d'/J	.	8A'/J	.	8F#'/J	.	8DD'\J	8D'\J	.
8ryy	8r	.	.	.	.	8r	8r	.	8r	.	8r	.	8r	.	8r	8r	.
=36:!!:	=36:!!:	=36:!!:	=36:!!:	=36:!!:	=36:!!:	=36:!!:	=36:!!:	=36:!!:	=36:!!:	=36:!!:	=36:!!:	=36:!!:	=36:!!:	=36:!!:	=36:!!:	=36:!!:	=36:!!:
*v	*v	*	*	*	*	*	*	*	*	*	*	*	*	*	*	*	*
*>B	*	*>B	*	*	*>B	*	*	*>B	*	*>B	*	*>B	*	*>B	*>B	*
[2aa\ (2ff#\	p	(2d/	(2F#\	p	2g/	2g\	p	16a/LK	p	16A/LK	p	16d\LK	p	(8DD\L	(8D\L	p
.	.	.	.	.	.	.	.	8a/	.	8A/	.	8d\	.	.	.	.
.	.	.	.	.	.	.	.	.	.	.	.	.	.	8FF#\	8F#\	.
.	.	.	.	.	.	.	.	8a/	.	8A/	.	8d\	.	.	.	.
.	.	.	.	.	.	.	.	.	.	.	.	.	.	8AA\	8A\	.
.	.	.	.	.	.	.	.	8a/	.	8A/	.	8d\	.	.	.	.
.	.	.	.	.	.	.	.	.	.	.	.	.	.	8FF#\J)	8F#\J)	.
.	.	.	.	.	.	.	.	[16a/Jk	.	[16A/Jk	.	(16d\Jk	.	.	.	.
=37	=37	=37	=37	=37	=37	=37	=37	=37	=37	=37	=37	=37	=37	=37	=37	=37
2aa\ 2gg\_)	.	2c#/)	2E\)	.	2dd/	2dd\	.	16a/LK]	.	16g/ 16A/LK]	.	16e\ 16c#\LK)	.	(8GG\L	(8G\L	.
.	.	.	.	.	.	.	.	8a/	.	8g/ 8A/	.	8e\ 8c#\	.	.	.	.
.	.	.	.	.	.	.	.	.	.	.	.	.	.	8EE\	8E\	.
.	.	.	.	.	.	.	.	8a/	.	8g/ 8A/	.	8e\ 8c#\	.	.	.	.
.	.	.	.	.	.	.	.	.	.	.	.	.	.	8CC#\	8C#\	.
.	.	.	.	.	.	.	.	8a/	.	8g/ 8A/	.	8e\ 8c#\	.	.	.	.
.	.	.	.	.	.	.	.	.	.	.	.	.	.	8AAA\J)	8AA\J)	.
.	.	.	.	.	.	.	.	[16a/Jk	.	[16g/ 16A/Jk	.	(16e\ 16c#\Jk	.	.	.	.
=38	=38	=38	=38	=38	=38	=38	=38	=38	=38	=38	=38	=38	=38	=38	=38	=38
*^	*	*	*	*	*	*	*	*	*	*	*	*	*	*	*	*
(4aa/]	4ff#\	.	(4d/	(4F#\	.	8g/	8g\	.	16a/LK]	.	16f#/ 16A/LK]	.	16d\LK)	.	(8DD\L	(8D\L	.
.	.	.	.	.	.	.	.	.	8a/	.	8f#/ 8A/	.	8d\	.	.	.	.
.	.	.	.	.	.	8r	8r	.	.	.	.	.	.	.	8FF#\	8F#\	.
.	.	.	.	.	.	.	.	.	(16a/Jk	.	(16f#/ 16A/Jk	.	8d\	.	.	.	.
4bb/	4gg\	.	4g/)	4B\)	.	4r	4r	.	16b/LK)	.	16g/ 16B/LK)	.	.	.	8GGG\	8GG\	.
.	.	.	.	.	.	.	.	.	8b/	.	8g/ 8B/	.	8d\	.	.	.	.
.	.	.	.	.	.	.	.	.	.	.	.	.	.	.	8GG\J)	8G\J)	.
.	.	.	.	.	.	.	.	.	(16b/Jk	.	(16g/ 16B/Jk	.	[16d\Jk	.	.	.	.
=39	=39	=39	=39	=39	=39	=39	=39	=39	=39	=39	=39	=39	=39	=39	=39	=39	=39
4aa/	4ff#\	.	(4f#/	(4A\	.	2r	2r	.	16a/LK)	.	16f#/ 16A/LK)	.	16d\LK]	.	8AAA\L	8AA\L	.
.	.	.	.	.	.	.	.	.	8a/	.	8f#/ 8A/	.	8d\	.	.	.	.
.	.	.	.	.	.	.	.	.	.	.	.	.	.	.	8AA\J	8A\J	.
.	.	.	.	.	.	.	.	.	(16a/Jk	.	(16f#/ 16A/Jk	.	(16d\Jk	.	.	.	.
4gg/)	4ee\	.	4e/)	4G\)	.	.	.	.	16g/LK)	.	16e/ 16c#/LK)	.	16A#/LK)	.	8AAA#\L	8AA#\L	.
.	.	.	.	.	.	.	.	.	8g/	.	8e/ 8c#/	.	8A#/	.	.	.	.
.	.	.	.	.	.	.	.	.	.	.	.	.	.	.	8AA#\J	8A#\J	.
.	.	.	.	.	.	.	.	.	(16g/Jk	.	(16e/ 16c#/Jk	.	(16A#/Jk	.	.	.	.
=40	=40	=40	=40	=40	=40	=40	=40	=40	=40	=40	=40	=40	=40	=40	=40	=40	=40
(4ff#/	4dd\	.	(4d/	(4F#\	.	4r	4r	.	16f#/LK)	.	16d/LK)	.	16B/LK)	.	8BBB\L	8BB\L	.
.	.	.	.	.	.	.	.	.	8f#/	.	8d/	.	8B/	.	.	.	.
.	.	.	.	.	.	.	.	.	.	.	.	.	.	.	8BB\	8B\	.
.	.	.	.	.	.	.	.	.	(16f#/Jk	.	(16d/Jk	.	[16B/Jk	.	.	.	.
4gg/	4ee\	.	4e/	4G\)	.	4ee/	4cc\	.	16g/LK)	.	16e/ 16G/LK)	.	16B/LK]	.	8EE\	8E\	.
.	.	.	.	.	.	.	.	.	8g/	.	8e/ 8G/	.	8B/	.	.	.	.
.	.	.	.	.	.	.	.	.	.	.	.	.	.	.	8GG\J	8G\J	.
.	.	.	.	.	.	.	.	.	(16g/Jk	.	(16e/ 16G/Jk	.	(16B/Jk	.	.	.	.
=41	=41	=41	=41	=41	=41	=41	=41	=41	=41	=41	=41	=41	=41	=41	=41	=41	=41
4ff#/	4dd\	.	4d/	(4F#\	.	2dd/	2dd\	.	16f#/LK)	.	16d/LK)	.	16An/LK)	.	8AA\L	8A\L	.
.	.	.	.	.	.	.	.	.	8f#/	.	8d/	.	8A/	.	.	.	.
.	.	.	.	.	.	.	.	.	.	.	.	.	.	.	8GG#\J	8G#\J	.
.	.	.	.	.	.	.	.	.	(16f#/Jk	.	(16d/Jk	.	(16A/Jk	.	.	.	.
4ee/	4cc#\	.	4c#/	4E\)	.	.	.	.	16e/LK)	.	16c#/LK)	.	16A/ 16G/LK)	.	8AA\L	8A\L	.
.	.	.	.	.	.	.	.	.	8e/	.	8c#/	.	8A/ 8G/	.	.	.	.
.	.	.	.	.	.	.	.	.	.	.	.	.	.	.	8AAA\J	8AA\J	.
.	.	.	.	.	.	.	.	.	(16e/Jk	.	16c#/Jk	.	16A/ 16G/Jk	.	.	.	.
=42	=42	=42	=42	=42	=42	=42	=42	=42	=42	=42	=42	=42	=42	=42	=42	=42	=42
4dd/)	4dd\	.	4d/)	4F#\	.	[2g/	[2G\	.	16.d/LL)	.	(16d/LL	.	16A/ 16F#/	.	16DD\LL	16D\LL	.
.	.	.	.	.	.	.	.	.	.	.	16a/	.	(16f#\LL	.	16DD\	16D\	.
.	.	.	.	.	.	.	.	.	32dd/Jk	.	.	.	.	.	.	.	.
.	.	.	.	.	.	.	.	.	8ddT/J	.	16f#/	.	16d\	.	16DD\	16D\	.
.	.	.	.	.	.	.	.	.	.	.	16a/JJ	.	16f#\JJ	.	16DD\JJ	16D\JJ	.
4r	4r	.	4r	4r	.	.	.	.	16.r	.	16f#/LL	.	16d\LL	.	16DD\LL	16D\LL	.
.	.	.	.	.	.	.	.	.	.	.	16a/	.	16f#\	.	16DD\	16D\	.
.	.	.	.	.	.	.	.	.	32dd\LKK	.	.	.	.	.	.	.	.
.	.	.	.	.	.	.	.	.	8ddT\J	.	16f#/	.	16d\	.	16DD\	16D\	.
.	.	.	.	.	.	.	.	.	.	.	16a/JJ)	.	16f#\JJ)	.	16DD\JJ	16D\JJ	.
=43	=43	=43	=43	=43	=43	=43	=43	=43	=43	=43	=43	=43	=43	=43	=43	=43	=43
*	*	*	*v	*v	*	*	*	*	*	*	*	*	*	*	*	*	*
2ddd/	2ff#\	f	[2A\ (2F#\	f	2g/_	2G\_	f	16r	.	(16f#/LL	f	(16d\LL	f	16DD\LL	16D\LL	f
.	.	.	.	.	.	.	.	16dd'\LL	f	16a/	.	16f#\	.	16DD\	16D\	.
.	.	.	.	.	.	.	.	(16ff#\	.	16f#/	.	16d\	.	16DD\	16D\	.
.	.	.	.	.	.	.	.	16dd\JJ)	.	16a/JJ	.	16f#\JJ	.	16DD\JJ	16D\JJ	.
.	.	.	.	.	.	.	.	(16aa\LL	.	16f#/LL	.	16d\LL	.	16DD\LL	16D\LL	.
.	.	.	.	.	.	.	.	16ff#\)	.	16a/	.	16f#\	.	16DD\	16D\	.
.	.	.	.	.	.	.	.	(16ff#\	.	16f#/	.	16d\	.	16DD\	16D\	.
.	.	.	.	.	.	.	.	16dd\JJ)	.	16a/JJ)	.	16f#\JJ)	.	16DD\JJ	16D\JJ	.
=44	=44	=44	=44	=44	=44	=44	=44	=44	=44	=44	=44	=44	=44	=44	=44	=44
*	*	*	*^	*	*	*	*	*	*	*	*	*	*	*	*	*
4ee/	4cc#\	p	4A/]	4G\)	p	2g/_	2G\_	p	16.cc#\LL	p	(16e/LL	p	(16c#\LL	p	16DD\LL	16D\LL	p
.	.	.	.	.	.	.	.	.	.	.	16g/	.	16e\	.	16DD\	16D\	.
.	.	.	.	.	.	.	.	.	32ee\Jk	.	.	.	.	.	.	.	.
.	.	.	.	.	.	.	.	.	8eeT\J	.	16e/	.	16c#\	.	16DD\	16D\	.
.	.	.	.	.	.	.	.	.	.	.	16g/JJ	.	16e\JJ	.	16DD\JJ	16D\JJ	.
4r	4r	.	4r	4r	.	.	.	.	16.r	.	16e/LL	.	16c#\LL	.	16DD\LL	16D\LL	.
.	.	.	.	.	.	.	.	.	.	.	16g/	.	16e\	.	16DD\	16D\	.
.	.	.	.	.	.	.	.	.	32ee\LKK	.	.	.	.	.	.	.	.
.	.	.	.	.	.	.	.	.	8eeT\J	.	16e/	.	16c#\	.	16DD\	16D\	.
.	.	.	.	.	.	.	.	.	.	.	16g/JJ)	.	16e\JJ)	.	16DD\JJ	16D\JJ	.
=45	=45	=45	=45	=45	=45	=45	=45	=45	=45	=45	=45	=45	=45	=45	=45	=45	=45
2ccc#/	2ee\	f	2A/	2G\	f	2g/_	2G\_	f	16r	.	(16e/LL	f	(16c#\LL	f	16DD\LL	16D\LL	f
.	.	.	.	.	.	.	.	.	16ee'\LL	f	16g/	.	16e\	.	16DD\	16D\	.
.	.	.	.	.	.	.	.	.	(16gg\	.	16e/	.	16c#\	.	16DD\	16D\	.
.	.	.	.	.	.	.	.	.	16ee\JJ)	.	16g/JJ	.	16e\JJ	.	16DD\JJ	16D\JJ	.
.	.	.	.	.	.	.	.	.	(16bb\LL	.	16e/LL	.	16c#\LL	.	16DD\LL	16D\LL	.
.	.	.	.	.	.	.	.	.	16gg\)	.	16g/	.	16e\	.	16DD\	16D\	.
.	.	.	.	.	.	.	.	.	(16gg\	.	16e/	.	16c#\	.	16DD\	16D\	.
.	.	.	.	.	.	.	.	.	16ee\JJ)	.	16g/JJ)	.	16e\JJ)	.	16DD\JJ	16D\JJ	.
=46	=46	=46	=46	=46	=46	=46	=46	=46	=46	=46	=46	=46	=46	=46	=46	=46	=46
(4ccc/	(4aa\	.	(4A/	(4F#\	.	2g/_	2G\_	.	16.r	.	(32f#\LLL	.	16d\LL	.	16DD\LL	16D\LL	.
.	.	.	.	.	.	.	.	.	.	.	32cc\	.	.	.	.	.	.
.	.	.	.	.	.	.	.	.	.	.	32b\	.	16dd\	.	16D\	16d\	.
.	.	.	.	.	.	.	.	.	32ff#\LKK	.	32cc\JJJ	.	.	.	.	.	.
.	.	.	.	.	.	.	.	.	8ff#t\J	.	32dd\LLL	.	16dd\	.	16D\	16d\	.
.	.	.	.	.	.	.	.	.	.	.	32cc\	.	.	.	.	.	.
.	.	.	.	.	.	.	.	.	.	.	32b\	.	16dd\JJ	.	16D\JJ	16d\JJ	.
.	.	.	.	.	.	.	.	.	.	.	32cc\JJJ)	.	.	.	.	.	.
4bb/)	4gg\)	.	4B/)	4G\)	.	.	.	.	16.r	.	32r	.	16d\LL	.	16DD\LL	16D\LL	.
.	.	.	.	.	.	.	.	.	.	.	(32b/LLL	.	.	.	.	.	.
.	.	.	.	.	.	.	.	.	.	.	32a/	.	16dd\	.	16D\	16d\	.
.	.	.	.	.	.	.	.	.	32gg\LKK	.	32b/JJJ	.	.	.	.	.	.
.	.	.	.	.	.	.	.	.	8ggT\J	.	32cc/LLL	.	16dd\	.	16D\	16d\	.
.	.	.	.	.	.	.	.	.	.	.	32b/	.	.	.	.	.	.
.	.	.	.	.	.	.	.	.	.	.	32a/	.	16dd\JJ	.	16D\JJ	16d\JJ	.
.	.	.	.	.	.	.	.	.	.	.	32g/JJJ)	.	.	.	.	.	.
=47	=47	=47	=47	=47	=47	=47	=47	=47	=47	=47	=47	=47	=47	=47	=47	=47	=47
(4aa/	(4ccn\	.	(4cn/	(4A\	.	2g/_	2G\_	.	16.r	.	32r	.	16d\LL	.	16DD\LL	16D\LL	.
.	.	.	.	.	.	.	.	.	.	.	(32f#/LLL	.	.	.	.	.	.
.	.	.	.	.	.	.	.	.	.	.	32e/	.	16dd\	.	16D\	16d\	.
.	.	.	.	.	.	.	.	.	32aa\LKK	.	32f#/JJJ	.	.	.	.	.	.
.	.	.	.	.	.	.	.	.	8aaT\J	.	32g/LLL	.	16dd\	.	16D\	16d\	.
.	.	.	.	.	.	.	.	.	.	.	32f#/	.	.	.	.	.	.
.	.	.	.	.	.	.	.	.	.	.	32e/	.	16dd\JJ	.	16D\JJ	16d\JJ	.
.	.	.	.	.	.	.	.	.	.	.	32f#/JJJ)	.	.	.	.	.	.
4gg/)	4b\)	.	4d/)	4B\)	.	.	.	.	16.r	.	32r	.	16d\LL	.	16DD\LL	16D\LL	.
.	.	.	.	.	.	.	.	.	.	.	(32g/LLL	.	.	.	.	.	.
.	.	.	.	.	.	.	.	.	.	.	32f#/	.	16dd\	.	16D\	16d\	.
.	.	.	.	.	.	.	.	.	32bb\LKK	.	32g/JJJ	.	.	.	.	.	.
.	.	.	.	.	.	.	.	.	8bbt\J	.	32a/LLL	.	16dd\	.	16D\	16d\	.
.	.	.	.	.	.	.	.	.	.	.	32g/	.	.	.	.	.	.
.	.	.	.	.	.	.	.	.	.	.	32f#/	.	16dd\JJ	.	16D\JJ	16d\JJ	.
.	.	.	.	.	.	.	.	.	.	.	32g/JJJ)	.	.	.	.	.	.
=48	=48	=48	=48	=48	=48	=48	=48	=48	=48	=48	=48	=48	=48	=48	=48	=48	=48
4ff#/	4a\	.	4c/	4A\	.	4g/]	4G\]	.	(8.ccc\L	.	4a/ 4f#/	.	4d\	.	4DD\	4D\	.
.	.	.	.	.	.	.	.	.	16aa\Jk)	.	.	.	.	.	.	.	.
4r	4r	.	4r	4r	.	4r	4r	.	(16gg\LL	.	4r	.	4r	.	4r	4r	.
.	.	.	.	.	.	.	.	.	16ff#\	.	.	.	.	.	.	.	.
.	.	.	.	.	.	.	.	.	16ee\	.	.	.	.	.	.	.	.
.	.	.	.	.	.	.	.	.	16dd\JJ)	.	.	.	.	.	.	.	.
=49	=49	=49	=49	=49	=49	=49	=49	=49	=49	=49	=49	=49	=49	=49	=49	=49	=49
2r	2r	.	2r	2r	.	2r	2r	.	(16cc/LL	.	2r	.	2r	.	2r	2r	.
.	.	.	.	.	.	.	.	.	16b/	.	.	.	.	.	.	.	.
.	.	.	.	.	.	.	.	.	16a/	.	.	.	.	.	.	.	.
.	.	.	.	.	.	.	.	.	16g/JJ)	.	.	.	.	.	.	.	.
.	.	.	.	.	.	.	.	.	(16f#/LL	.	.	.	.	.	.	.	.
.	.	.	.	.	.	.	.	.	16ee/	.	.	.	.	.	.	.	.
.	.	.	.	.	.	.	.	.	16dd/	.	.	.	.	.	.	.	.
.	.	.	.	.	.	.	.	.	16f#/JJ)	.	.	.	.	.	.	.	.
=50	=50	=50	=50	=50	=50	=50	=50	=50	=50	=50	=50	=50	=50	=50	=50	=50	=50
*	*	*	*v	*v	*	*	*	*	*	*	*	*	*	*	*	*	*
2g/	2g\	p	[2d\ 2B\	p	2cc/	2c\	p	(4g/	p	16G'/LL	p	4g\	p	4GG\	4G\	p
.	.	.	.	.	.	.	.	.	.	16B'/	.	.	.	.	.	.
.	.	.	.	.	.	.	.	.	.	16d'/	.	.	.	.	.	.
.	.	.	.	.	.	.	.	.	.	16B'/JJ	.	.	.	.	.	.
.	.	.	.	.	.	.	.	8.b\L)	.	16G'/LL	.	4r	.	4r	4r	.
.	.	.	.	.	.	.	.	.	.	16B'/	.	.	.	.	.	.
.	.	.	.	.	.	.	.	.	.	16d'/	.	.	.	.	.	.
.	.	.	.	.	.	.	.	16dd\Jk	.	16B'/JJ	.	.	.	.	.	.
=51	=51	=51	=51	=51	=51	=51	=51	=51	=51	=51	=51	=51	=51	=51	=51	=51
*	*	*	*^	*	*	*	*	*	*	*	*	*	*	*	*	*
2a/	2f#\	fp	2d/]	2c\	fp	2g/	2G\	fp	4.ddz\	z	16A'/LL	.	4d\	fp	4DD\	4D\	fp
.	.	.	.	.	.	.	.	.	.	.	16c'/	.	.	.	.	.	.
.	.	.	.	.	.	.	.	.	.	.	16f#'/	.	.	.	.	.	.
.	.	.	.	.	.	.	.	.	.	.	16c'/JJ	.	.	.	.	.	.
.	.	.	.	.	.	.	.	.	.	.	16A'/LL	.	4r	.	4r	4r	.
.	.	.	.	.	.	.	.	.	.	.	16c'/	.	.	.	.	.	.
.	.	.	.	.	.	.	.	.	(24cc\LL	p	16f#'/	.	.	.	.	.	.
.	.	.	.	.	.	.	.	.	24b\	.	.	.	.	.	.	.	.
.	.	.	.	.	.	.	.	.	.	.	16c'/JJ	.	.	.	.	.	.
.	.	.	.	.	.	.	.	.	24a\JJ)	.	.	.	.	.	.	.	.
=52	=52	=52	=52	=52	=52	=52	=52	=52	=52	=52	=52	=52	=52	=52	=52	=52	=52
2r	2r	.	2r	2r	.	2r	2r	.	8g'/L	.	16B'/LL	.	8d'\L	.	8GG'\L	8G'\L	.
.	.	.	.	.	.	.	.	.	.	.	16d'/	.	.	.	.	.	.
.	.	.	.	.	.	.	.	.	8g'/	.	16g'/	.	8d'\	.	8BB'\	8B'\	.
.	.	.	.	.	.	.	.	.	.	.	16d'/JJ	.	.	.	.	.	.
.	.	.	.	.	.	.	.	.	8g'/	.	16B'/LL	.	8d'\	.	8D'\	8d'\	.
.	.	.	.	.	.	.	.	.	.	.	16d'/	.	.	.	.	.	.
.	.	.	.	.	.	.	.	.	8a'/J	.	16c'/	.	8f#'\J	.	8DD'\J	8D'\J	.
.	.	.	.	.	.	.	.	.	.	.	16A'/JJ	.	.	.	.	.	.
=53	=53	=53	=53	=53	=53	=53	=53	=53	=53	=53	=53	=53	=53	=53	=53	=53	=53
2r	2r	.	2r	2r	.	2r	2r	.	(8.a/L	.	16A'/LL	.	(4f#\	.	(4GG\	(4G\	.
.	.	.	.	.	.	.	.	.	.	.	16c'/	.	.	.	.	.	.
.	.	.	.	.	.	.	.	.	.	.	16d'/	.	.	.	.	.	.
.	.	.	.	.	.	.	.	.	16a#/Jk)	.	16c'/JJ	.	.	.	.	.	.
.	.	.	.	.	.	.	.	.	8b\	.	16G'/LL	.	8g\)	.	8GGG/)	8GG/)	.
.	.	.	.	.	.	.	.	.	.	.	16B'/	.	.	.	.	.	.
.	.	.	.	.	.	.	.	.	8r	.	16d'/	.	8r	.	8r	8r	.
.	.	.	.	.	.	.	.	.	.	.	16B'/JJ	.	.	.	.	.	.
=54	=54	=54	=54	=54	=54	=54	=54	=54	=54	=54	=54	=54	=54	=54	=54	=54	=54
[2ee/	[2cc\	fp	[2e/	[2c\	fp	[2cc/	[2c\	fp	4ee\ 4cc\ 4g\	f	16c/LL	f	16r	.	16r	16r	.
.	.	.	.	.	.	.	.	.	.	.	16e/	.	16g\LL	f	16GG\LL	16G\LL	f
.	.	.	.	.	.	.	.	.	.	.	16g/	.	16e\	.	16EE\	16E\	.
.	.	.	.	.	.	.	.	.	.	.	16e/JJ	.	16c\JJ	.	16CC\JJ	16C\JJ	.
.	.	.	.	.	.	.	.	.	16r	.	16c/LL	p	4G/	p	4GGG/	4GG/	p
!	!	!	!	!	!	!	!	!	! 32ff#P/	!	!	!	!	!	!	!	!
.	.	.	.	.	.	.	.	.	16ggp\LL	p	16e/	.	.	.	.	.	.
!	!	!	!	!	!	!	!	!	! 32ff#P/	!	!	!	!	!	!	!	!
.	.	.	.	.	.	.	.	.	16ggp\	.	16g/	.	.	.	.	.	.
!	!	!	!	!	!	!	!	!	! 32ff#P/	!	!	!	!	!	!	!	!
.	.	.	.	.	.	.	.	.	16ggp\JJ	.	16e/JJ	.	.	.	.	.	.
=55	=55	=55	=55	=55	=55	=55	=55	=55	=55	=55	=55	=55	=55	=55	=55	=55	=55
2ee/]	2cc\]	.	2e/]	2c\]	.	2cc/_	2c\_	.	(16ccc\LL	.	16c/LL	.	2r	.	2r	2r	.
.	.	.	.	.	.	.	.	.	16gg\JJ)	.	16e/	.	.	.	.	.	.
.	.	.	.	.	.	.	.	.	16r	.	16g/	.	.	.	.	.	.
.	.	.	.	.	.	.	.	.	16ggT\	.	16e/JJ	.	.	.	.	.	.
.	.	.	.	.	.	.	.	.	(16ccc\LL	.	16c/LL	.	.	.	.	.	.
.	.	.	.	.	.	.	.	.	16gg\)	.	16e/	.	.	.	.	.	.
.	.	.	.	.	.	.	.	.	(16gg\	.	16g/	.	.	.	.	.	.
.	.	.	.	.	.	.	.	.	16ee\JJ)	.	16e/JJ	.	.	.	.	.	.
=56	=56	=56	=56	=56	=56	=56	=56	=56	=56	=56	=56	=56	=56	=56	=56	=56	=56
[2dd/	[2b\	fp	[2d/	[2B\	fp	2cc/_	2c\_	fp	4dd/ 4d/ 4G/	f	16B/LL	f	16r	.	16r	16r	.
.	.	.	.	.	.	.	.	.	.	.	16d/	.	16g\LL	f	16GG\LL	16G\LL	f
.	.	.	.	.	.	.	.	.	.	.	16g/	.	16d\	.	16DD\	16D\	.
.	.	.	.	.	.	.	.	.	.	.	16d/JJ	.	16B\JJ	.	16BBB\JJ	16BB\JJ	.
.	.	.	.	.	.	.	.	.	16r	.	16B/LL	p	4G/	p	4GGG/	4GG/	p
!	!	!	!	!	!	!	!	!	! 32ff#P/	!	!	!	!	!	!	!	!
.	.	.	.	.	.	.	.	.	16ggp\LL	p	16d/	.	.	.	.	.	.
!	!	!	!	!	!	!	!	!	! 32ff#P/	!	!	!	!	!	!	!	!
.	.	.	.	.	.	.	.	.	16ggp\	.	16g/	.	.	.	.	.	.
!	!	!	!	!	!	!	!	!	! 32ff#P/	!	!	!	!	!	!	!	!
.	.	.	.	.	.	.	.	.	16ggp\JJ	.	16d/JJ	.	.	.	.	.	.
=57	=57	=57	=57	=57	=57	=57	=57	=57	=57	=57	=57	=57	=57	=57	=57	=57	=57
2dd/]	2b\]	.	2d/]	2B\]	.	2cc/]	2c\]	.	(16bb\LL	.	16B/LL	.	2r	.	2r	2r	.
.	.	.	.	.	.	.	.	.	16gg\JJ)	.	16d/	.	.	.	.	.	.
.	.	.	.	.	.	.	.	.	16r	.	16g/	.	.	.	.	.	.
.	.	.	.	.	.	.	.	.	16ggT\	.	16d/JJ	.	.	.	.	.	.
.	.	.	.	.	.	.	.	.	(16bb\LL	.	16B/LL	.	.	.	.	.	.
.	.	.	.	.	.	.	.	.	16gg\)	.	16d/	.	.	.	.	.	.
.	.	.	.	.	.	.	.	.	(16gg\	.	16g/	.	.	.	.	.	.
.	.	.	.	.	.	.	.	.	16dd\JJ)	.	16d/JJ	.	.	.	.	.	.
=58	=58	=58	=58	=58	=58	=58	=58	=58	=58	=58	=58	=58	=58	=58	=58	=58	=58
8r	2r	.	2r	2r	.	2r	2r	.	(2cc#\	.	16A/LL	.	8a\	p	8AA\	8A\	p
.	.	.	.	.	.	.	.	.	.	.	16e/	.	.	.	.	.	.
(4b-/	.	fp	.	.	.	.	.	.	.	.	16g/	.	8r	.	8r	8r	.
.	.	.	.	.	.	.	.	.	.	.	16e/JJ	.	.	.	.	.	.
.	.	.	.	.	.	.	.	.	.	.	16A/LL	.	8a\	.	8AA\	8A\	.
.	.	.	.	.	.	.	.	.	.	.	16e/	.	.	.	.	.	.
8a/)	.	.	.	.	.	.	.	.	.	.	16g/	.	8r	.	8r	8r	.
.	.	.	.	.	.	.	.	.	.	.	16e/JJ	.	.	.	.	.	.
=59	=59	=59	=59	=59	=59	=59	=59	=59	=59	=59	=59	=59	=59	=59	=59	=59	=59
2r	2r	.	8r	2r	.	2r	2r	.	2ccn\)	.	16A/LL	.	8d\	.	8DD\	8D\	.
.	.	.	.	.	.	.	.	.	.	.	16f#/	.	.	.	.	.	.
.	.	.	(4e-/	.	fp	.	.	.	.	.	16a/	.	8r	.	8r	8r	.
.	.	.	.	.	.	.	.	.	.	.	16f#/JJ	.	.	.	.	.	.
.	.	.	.	.	.	.	.	.	.	.	16A/LL	.	8d\	.	8DD\	8D\	.
.	.	.	.	.	.	.	.	.	.	.	16f#/	.	.	.	.	.	.
.	.	.	8d/)	.	.	.	.	.	.	.	16a/	.	8r	.	8r	8r	.
.	.	.	.	.	.	.	.	.	.	.	16f#/JJ	.	.	.	.	.	.
=60	=60	=60	=60	=60	=60	=60	=60	=60	=60	=60	=60	=60	=60	=60	=60	=60	=60
16r	16r	.	16r	16r	.	2r	2r	.	(4bn\	.	(2g/	.	(4d\	.	8GG\	8G\	.
16bn/LL	(16g'\LL	.	(16d'/LL	16G\LL	.	.	.	.	.	.	.	.	.	.	.	.	.
16b/	16g'\	.	16d'/	16G\	.	.	.	.	.	.	.	.	.	.	8r	8r	.
16b/JJ	16g'\JJ)	.	16d'/JJ)	16G\JJ	.	.	.	.	.	.	.	.	.	.	.	.	.
16r	16r	.	16r	16r	.	.	.	.	4b-\)	.	.	.	4en\ 4c#\)	.	8CC#/	8C#/	.
16b-/LL	(16g'\LL	.	(16en'/LL	16C#\LL	.	.	.	.	.	.	.	.	.	.	.	.	.
16b-/	16g'\	.	16e'/	16C#\	.	.	.	.	.	.	.	.	.	.	8r	8r	.
16b-/JJ	16g'\JJ)	.	16e'/JJ)	16C#\JJ	.	.	.	.	.	.	.	.	.	.	.	.	.
=61	=61	=61	=61	=61	=61	=61	=61	=61	=61	=61	=61	=61	=61	=61	=61	=61	=61
*	*	*	*v	*v	*	*	*	*	*	*	*	*	*	*	*	*	*
4a/	4f#\	.	16d\ 16D\LL	.	[2g/	[2G\	p	8a/	.	8f#/)	.	8d\	.	8DD\	8D\	.
!	!	!	! a 2	!	!	!	!	!	!	!	!	!	!	!	!	!
.	.	.	16F#\	.	.	.	.	.	.	.	.	.	.	.	.	.
.	.	.	16A\	.	.	.	.	32r	.	32r	.	8r	.	8r	8r	.
.	.	.	.	.	.	.	.	(32gg#\LLL	.	(32g#/LLL	.	.	.	.	.	.
.	.	.	16F#\JJ	.	.	.	.	32aa\	.	32a/	.	.	.	.	.	.
.	.	.	.	.	.	.	.	32gg#\JJJ	.	32g#/JJJ	.	.	.	.	.	.
4r	4r	.	16D\LL	.	.	.	.	32aa\LLL	.	32a/LLL	.	8d\	.	8DD\	8D\	.
.	.	.	.	.	.	.	.	32gg#\	.	32g#/	.	.	.	.	.	.
.	.	.	16F#\	.	.	.	.	32aa\	.	32a/	.	.	.	.	.	.
.	.	.	.	.	.	.	.	32gg#\JJJ	.	32g#/JJJ	.	.	.	.	.	.
.	.	.	16A\	.	.	.	.	32aa\LLL	.	32a/LLL	.	8r	.	8r	8r	.
.	.	.	.	.	.	.	.	32ff#\	.	32f#/	.	.	.	.	.	.
.	.	.	16F#\JJ	.	.	.	.	32dd\	.	32d/	.	.	.	.	.	.
.	.	.	.	.	.	.	.	32cc\JJJ)	.	32c/JJJ)	.	.	.	.	.	.
=62	=62	=62	=62	=62	=62	=62	=62	=62	=62	=62	=62	=62	=62	=62	=62	=62
2r	2r	.	16D\LL	.	2g/_	2G\_	.	(32.b\LLL	.	(32.B/LLL	.	8d\	.	8DD\	8D\	.
.	.	.	.	.	.	.	.	64dd\Jk	.	64d/Jk	.	.	.	.	.	.
.	.	.	16G\	.	.	.	.	16ggn\JJ)	.	16gn/JJ)	.	.	.	.	.	.
.	.	.	16B\	.	.	.	.	32r	.	32r	.	8r	.	8r	8r	.
.	.	.	.	.	.	.	.	(32gg\LLL	.	(32g/LLL	.	.	.	.	.	.
.	.	.	16G\JJ	.	.	.	.	32bb\	.	32b/	.	.	.	.	.	.
.	.	.	.	.	.	.	.	32aa\JJJ)	.	32a/JJJ)	.	.	.	.	.	.
!	!	!	!	!	!	!	!	! 32aaP/	!	! 32aP/	!	!	!	!	!	!
.	.	.	16D\LL	.	.	.	.	(16ggp\LL	.	(16gp/LL	.	8d\	.	8DD\	8D\	.
.	.	.	16G\	.	.	.	.	32ff#\L	.	32f#/L	.	.	.	.	.	.
.	.	.	.	.	.	.	.	32ee\JJJ)	.	32e/JJJ)	.	.	.	.	.	.
!	!	!	!	!	!	!	!	! 32eeP/	!	! 32eP/	!	!	!	!	!	!
.	.	.	16B\	.	.	.	.	(16ddp\LL	.	(16dp/LL	.	8r	.	8r	8r	.
.	.	.	16G\JJ	.	.	.	.	32cc\L	.	32c/L	.	.	.	.	.	.
.	.	.	.	.	.	.	.	32b\JJJ)	.	32B/JJJ)	.	.	.	.	.	.
=63	=63	=63	=63	=63	=63	=63	=63	=63	=63	=63	=63	=63	=63	=63	=63	=63
(2a/	(2f#\	p	16D\LL	.	2g/_	2G\_	.	(32.dd\LLL	.	(32.d/LLL	.	8d\	.	8DD\	8D\	.
.	.	.	.	.	.	.	.	64b\Jk	.	64B/Jk	.	.	.	.	.	.
.	.	.	16F#\	.	.	.	.	16a\JJ)	.	16A/JJ)	.	.	.	.	.	.
.	.	.	16A\	.	.	.	.	32r	.	32r	.	8r	.	8r	8r	.
.	.	.	.	.	.	.	.	(32gg#\LLL	.	(32g#/LLL	.	.	.	.	.	.
.	.	.	16F#\JJ	.	.	.	.	32aa\	.	32a/	.	.	.	.	.	.
.	.	.	.	.	.	.	.	32gg#\JJJ	.	32g#/JJJ	.	.	.	.	.	.
.	.	.	16D\LL	.	.	.	.	32aa\LLL	.	32a/LLL	.	8d\	.	8DD\	8D\	.
.	.	.	.	.	.	.	.	32gg#\	.	32g#/	.	.	.	.	.	.
.	.	.	16F#\	.	.	.	.	32aa\	.	32a/	.	.	.	.	.	.
.	.	.	.	.	.	.	.	32gg#\JJJ	.	32g#/JJJ	.	.	.	.	.	.
.	.	.	16A\	.	.	.	.	32aa\LLL	.	32a/LLL	.	8r	.	8r	8r	.
.	.	.	.	.	.	.	.	32ff#\	.	32f#/	.	.	.	.	.	.
.	.	.	16F#\JJ	.	.	.	.	32dd\	.	32d/	.	.	.	.	.	.
.	.	.	.	.	.	.	.	32cc\JJJ)	.	32c/JJJ)	.	.	.	.	.	.
=64	=64	=64	=64	=64	=64	=64	=64	=64	=64	=64	=64	=64	=64	=64	=64	=64
[2b/)	[2g\)	.	16D\LL	.	2g/_	2G\_	.	(32.b\LLL	.	(32.B/LLL	.	8d\	.	8DD\	8D\	.
.	.	.	.	.	.	.	.	64dd\Jk	.	64d/Jk	.	.	.	.	.	.
.	.	.	16G\	.	.	.	.	16ggn\JJ)	.	16gn/JJ)	.	.	.	.	.	.
.	.	.	16B\	.	.	.	.	32r	.	32r	.	8r	.	8r	8r	.
.	.	.	.	.	.	.	.	(32gg\LLL	.	(32g/LLL	.	.	.	.	.	.
.	.	.	16G\JJ	.	.	.	.	32bb\	.	32b/	.	.	.	.	.	.
.	.	.	.	.	.	.	.	32aa\JJJ)	.	32a/JJJ)	.	.	.	.	.	.
!	!	!	!	!	!	!	!	! 32aaP/	!	! 32aP/	!	!	!	!	!	!
.	.	.	16D\LL	.	.	.	.	(16ggp\LL	.	(16gp/LL	.	8d\	.	8DD\	8D\	.
.	.	.	16G\	.	.	.	.	32ff#\L	.	32f#/L	.	.	.	.	.	.
.	.	.	.	.	.	.	.	32ee\JJJ)	.	32e/JJJ)	.	.	.	.	.	.
!	!	!	!	!	!	!	!	! 32eeP/	!	! 32eP/	!	!	!	!	!	!
.	.	.	16B\	.	.	.	.	(16ddp\LL	.	(16dp/LL	.	8r	.	8r	8r	.
.	.	.	16G\JJ	.	.	.	.	32cc\L	.	32c/L	.	.	.	.	.	.
.	.	.	.	.	.	.	.	32b\JJJ)	.	32B/JJJ)	.	.	.	.	.	.
=65	=65	=65	=65	=65	=65	=65	=65	=65	=65	=65	=65	=65	=65	=65	=65	=65
8b/L]	(8g\L]	.	(16.B\LL	.	8g/L]	8G\L]	.	(16.dd\LL	.	(16.d/LL	.	8d\L	.	8DD\L	8D\L	.
.	.	.	32G\k)	.	.	.	.	32b\k)	.	32B/k)	.	.	.	.	.	.
8a/J	8f#\J)	.	16F#'\	.	8g/	8G\	.	16a'\	.	16A'/	.	8d\	.	8DD\	8D\	.
.	.	.	16F#'\JJ	.	.	.	.	16a'\JJ	.	16A'/JJ	.	.	.	.	.	.
8a/	8f#\	.	8F#\	.	8g/J	8G\J	.	8a/	.	8A/	.	8d\J	.	8DD\J	8D\J	.
8r	8r	.	8r	.	8r	8r	.	8r	.	8r	.	8r	.	8r	8r	.
=66	=66	=66	=66	=66	=66	=66	=66	=66	=66	=66	=66	=66	=66	=66	=66	=66
*	*	*	*^	*	*	*	*	*	*	*	*	*	*	*	*	*
2r	2r	.	2r	2r	.	2r	2r	.	16ddd'\LL	p	2r	.	2r	.	2r	2r	.
.	.	.	.	.	.	.	.	.	16ddd'\	.	.	.	.	.	.	.	.
.	.	.	.	.	.	.	.	.	16ddd'\	.	.	.	.	.	.	.	.
.	.	.	.	.	.	.	.	.	16ddd'\JJ	.	.	.	.	.	.	.	.
.	.	.	.	.	.	.	.	.	16ddd'\LL	.	.	.	.	.	.	.	.
.	.	.	.	.	.	.	.	.	16ddd'\	.	.	.	.	.	.	.	.
.	.	.	.	.	.	.	.	.	16ddd'\	.	.	.	.	.	.	.	.
.	.	.	.	.	.	.	.	.	16ddd'\JJ	.	.	.	.	.	.	.	.
=67	=67	=67	=67	=67	=67	=67	=67	=67	=67	=67	=67	=67	=67	=67	=67	=67	=67
2r	2r	.	2r	2r	.	2r	2r	.	16ddd\LL	.	(32b\LLL	p	(32g\LLL	p	8r	8r	.
.	.	.	.	.	.	.	.	.	.	.	32dd\)	.	32d\)	.	.	.	.
.	.	.	.	.	.	.	.	.	16ddd\	.	32gg'\	.	32b'\	.	.	.	.
.	.	.	.	.	.	.	.	.	.	.	32gg'\JJJ	.	32b'\JJJ	.	.	.	.
.	.	.	.	.	.	.	.	.	16ddd\	.	16gg'\	.	16b'\	.	8GG'\L	8G'\L	p
.	.	.	.	.	.	.	.	.	16ddd\JJ	.	16r	.	16r	.	.	.	.
.	.	.	.	.	.	.	.	.	16ddd\LL	.	(32ff#\LLL	.	(32cc\LLL	.	8AA'\	8A'\	.
.	.	.	.	.	.	.	.	.	.	.	32aa\)	.	32a\)	.	.	.	.
.	.	.	.	.	.	.	.	.	16ddd\	.	32ccc'\	.	32f#'\	.	.	.	.
.	.	.	.	.	.	.	.	.	.	.	32ccc'\JJJ	.	32f#'\JJJ	.	.	.	.
.	.	.	.	.	.	.	.	.	16ddd\	.	16ccc'\	.	16f#'\	.	8DD'\J	8D'\J	.
.	.	.	.	.	.	.	.	.	16ddd\JJ	.	16r	.	16r	.	.	.	.
=68	=68	=68	=68	=68	=68	=68	=68	=68	=68	=68	=68	=68	=68	=68	=68	=68	=68
2r	2r	.	2r	2r	.	2r	2r	.	16ddd\LL	.	(32bb\LLL	.	(32g\LLL	.	8r	8r	.
.	.	.	.	.	.	.	.	.	.	.	32ccc\)	.	32a\)	.	.	.	.
.	.	.	.	.	.	.	.	.	16ddd\	.	32ddd'\	.	32b'\	.	.	.	.
.	.	.	.	.	.	.	.	.	.	.	32ddd'\JJJ	.	32b'\JJJ	.	.	.	.
.	.	.	.	.	.	.	.	.	16ddd\	.	(32ccc\LLL	.	(32ee\LLL	.	8GG'\L	8G'\L	.
.	.	.	.	.	.	.	.	.	.	.	32bb\)	.	32dd\)	.	.	.	.
.	.	.	.	.	.	.	.	.	16ddd\JJ	.	32aa'\	.	32cc'\	.	.	.	.
.	.	.	.	.	.	.	.	.	.	.	32gg'\JJJ	.	32b'\JJJ	.	.	.	.
.	.	.	.	.	.	.	.	.	16ddd\LL	.	(32gg\LLL	.	(32b\LLL	.	8D'\	8d'\	.
.	.	.	.	.	.	.	.	.	.	.	32ff#\)	.	32a\)	.	.	.	.
.	.	.	.	.	.	.	.	.	16ddd\	.	32ee'\	.	32cc'\	.	.	.	.
.	.	.	.	.	.	.	.	.	.	.	32dd'\JJJ	.	32b'\JJJ	.	.	.	.
.	.	.	.	.	.	.	.	.	16ddd\	.	(32dd\LLL	.	(32b\LLL	.	8DD'\J	8D'\J	.
.	.	.	.	.	.	.	.	.	.	.	32cc\)	.	32a\)	.	.	.	.
.	.	.	.	.	.	.	.	.	16ddd\JJ	.	32b'\	.	32g'\	.	.	.	.
.	.	.	.	.	.	.	.	.	.	.	32a'\JJJ	.	32f#'\JJJ	.	.	.	.
=69	=69	=69	=69	=69	=69	=69	=69	=69	=69	=69	=69	=69	=69	=69	=69	=69	=69
2r	2r	.	2r	2r	.	2r	2r	.	16ddd\LL	.	(32b\LLL	.	(32g\LLL	.	8r	8r	.
.	.	.	.	.	.	.	.	.	.	.	32dd\)	.	32d\)	.	.	.	.
.	.	.	.	.	.	.	.	.	16ddd\	.	32gg'\	.	32b'\	.	.	.	.
.	.	.	.	.	.	.	.	.	.	.	32gg'\JJJ	.	32b'\JJJ	.	.	.	.
.	.	.	.	.	.	.	.	.	16ddd\	.	16gg'\	.	16b'\	.	8GG'\L	8G'\L	.
.	.	.	.	.	.	.	.	.	16ddd\JJ	.	16r	.	16r	.	.	.	.
.	.	.	.	.	.	.	.	.	16ddd\LL	.	(32ff#\LLL	.	(32cc\LLL	.	8AA'\	8A'\	.
.	.	.	.	.	.	.	.	.	.	.	32aa\)	.	32a\)	.	.	.	.
.	.	.	.	.	.	.	.	.	16ddd\	.	32ccc'\	.	32f#'\	.	.	.	.
.	.	.	.	.	.	.	.	.	.	.	32ccc'\JJJ	.	32f#'\JJJ	.	.	.	.
.	.	.	.	.	.	.	.	.	16ddd\	.	16ccc'\	.	16f#'\	.	8DD'\J	8D'\J	.
.	.	.	.	.	.	.	.	.	16ddd\JJ	.	16r	.	16r	.	.	.	.
=70	=70	=70	=70	=70	=70	=70	=70	=70	=70	=70	=70	=70	=70	=70	=70	=70	=70
2r	2r	.	2r	2r	.	2r	2r	.	16ddd\LL	.	(32bb\LLL	.	(32g\LLL	.	8r	8r	.
.	.	.	.	.	.	.	.	.	.	.	32ccc\)	.	32a\)	.	.	.	.
.	.	.	.	.	.	.	.	.	16ddd\	.	32ddd'\	.	32b'\	.	.	.	.
.	.	.	.	.	.	.	.	.	.	.	32ddd'\JJJ	.	32b'\JJJ	.	.	.	.
.	.	.	.	.	.	.	.	.	16ddd\	.	(32ccc\LLL	.	(32ee\LLL	.	8GG'\L	8G'\L	.
.	.	.	.	.	.	.	.	.	.	.	32bb\)	.	32dd\)	.	.	.	.
.	.	.	.	.	.	.	.	.	16ddd\JJ	.	32aa'\	.	32cc'\	.	.	.	.
.	.	.	.	.	.	.	.	.	.	.	32gg'\JJJ	.	32b'\JJJ	.	.	.	.
.	.	.	.	.	.	.	.	.	16ddd\LL	.	(32gg\LLL	.	(32b\LLL	.	8D'\	8d'\	.
.	.	.	.	.	.	.	.	.	.	.	32ff#\)	.	32a\)	.	.	.	.
.	.	.	.	.	.	.	.	.	16ddd\	.	32ee'\	.	32cc'\	.	.	.	.
.	.	.	.	.	.	.	.	.	.	.	32dd'\JJJ	.	32b'\JJJ	.	.	.	.
.	.	.	.	.	.	.	.	.	16ddd\	.	(32dd\LLL	.	(32b\LLL	.	8DD'\J	8D'\J	.
.	.	.	.	.	.	.	.	.	.	.	32cc\)	.	32a\)	.	.	.	.
.	.	.	.	.	.	.	.	.	16ddd\JJ	.	32b'\	.	32g'\	.	.	.	.
.	.	.	.	.	.	.	.	.	.	.	32a'\JJJ	.	32f#'\JJJ	.	.	.	.
=71	=71	=71	=71	=71	=71	=71	=71	=71	=71	=71	=71	=71	=71	=71	=71	=71	=71
*	*	*	*v	*v	*	*	*	*	*	*	*	*	*	*	*	*	*
[2ffn/	[2dd\	f	16BB/LL	f	[2cc/	[2c\	f	4.ddd\	f	(32fn/LLL	f	16d\LL	f	16BBB/LL	16BB/LL	f
.	.	.	.	.	.	.	.	.	.	32g/	.	.	.	.	.	.
.	.	.	16BB/	.	.	.	.	.	.	32f/	.	16d\	.	16BBB/	16BB/	.
.	.	.	.	.	.	.	.	.	.	32g/JJJ	.	.	.	.	.	.
.	.	.	16BB/	.	.	.	.	.	.	32f/LLL	.	16d\	.	16BBB/	16BB/	.
.	.	.	.	.	.	.	.	.	.	32g/	.	.	.	.	.	.
.	.	.	16BB/JJ	.	.	.	.	.	.	32f/	.	16d\JJ	.	16BBB/JJ	16BB/JJ	.
.	.	.	.	.	.	.	.	.	.	32g/JJJ)	.	.	.	.	.	.
.	.	.	16BB/LL	.	.	.	.	.	.	(32f/LLL	.	16d\LL	.	16BBB/LL	16BB/LL	.
.	.	.	.	.	.	.	.	.	.	32g/	.	.	.	.	.	.
.	.	.	16BB/	.	.	.	.	.	.	32f/	.	16d\	.	16BBB/	16BB/	.
.	.	.	.	.	.	.	.	.	.	32g/JJJ	.	.	.	.	.	.
.	.	.	16BB/	.	.	.	.	(32ccc\LLL	.	32f/LLL	.	16d\	.	16BBB/	16BB/	.
.	.	.	.	.	.	.	.	32bb\	.	32g/	.	.	.	.	.	.
.	.	.	16BB/JJ	.	.	.	.	32aa\	.	32f/	.	16d\JJ	.	16BBB/JJ	16BB/JJ	.
.	.	.	.	.	.	.	.	32gg\JJJ)	.	32g/JJJ)	.	.	.	.	.	.
=72	=72	=72	=72	=72	=72	=72	=72	=72	=72	=72	=72	=72	=72	=72	=72	=72
(2ff/]	(2dd\]	.	16BB/LL	.	2cc/_	2c\_	.	(32ffn\LLL	.	(32fn/LLL	.	16d\LL	.	16BBB/LL	16BB/LL	.
.	.	.	.	.	.	.	.	32gg\	.	32g/	.	.	.	.	.	.
.	.	.	16BB/	.	.	.	.	32ee\	.	32f/	.	16d\	.	16BBB/	16BB/	.
.	.	.	.	.	.	.	.	32ff\JJJ	.	32g/JJJ	.	.	.	.	.	.
.	.	.	16BB/	.	.	.	.	32dd\LLL	.	32f/LLL	.	16d\	.	16BBB/	16BB/	.
.	.	.	.	.	.	.	.	32ee\	.	32g/	.	.	.	.	.	.
.	.	.	16BB/JJ	.	.	.	.	32cc\	.	32f/	.	16d\JJ	.	16BBB/JJ	16BB/JJ	.
.	.	.	.	.	.	.	.	32dd\JJJ)	.	32g/JJJ)	.	.	.	.	.	.
.	.	.	16BB/LL	.	.	.	.	(32b/LLL	.	(32f/LLL	.	16d/LL	.	16BBB/LL	16BB/LL	.
.	.	.	.	.	.	.	.	32cc/	.	32g/	.	.	.	.	.	.
.	.	.	16BB/	.	.	.	.	32a/	.	32f/	.	16d/	.	16BBB/	16BB/	.
.	.	.	.	.	.	.	.	32b/JJJ	.	32g/JJJ	.	.	.	.	.	.
.	.	.	16BB/	.	.	.	.	32g/LLL	.	32e/LLL	.	16G/	.	16BBB/	16BB/	.
.	.	.	.	.	.	.	.	32a/	.	32f/	.	.	.	.	.	.
.	.	.	16BB/JJ	.	.	.	.	32fn/	.	32d/	.	16G/JJ	.	16BBB/JJ	16BB/JJ	.
.	.	.	.	.	.	.	.	32g/JJJ)	.	32e/JJJ)	.	.	.	.	.	.
=73	=73	=73	=73	=73	=73	=73	=73	=73	=73	=73	=73	=73	=73	=73	=73	=73
4ee/)	4cc\)	.	4C/	.	4cc/]	4c\]	.	16e\LL	.	4c/	.	4G/	.	4CC/	4C/	.
.	.	.	.	.	.	.	.	(16gg'\	p	.	.	.	.	.	.	.
.	.	.	.	.	.	.	.	16gg'\	.	.	.	.	.	.	.	.
.	.	.	.	.	.	.	.	16gg'\JJ)	.	.	.	.	.	.	.	.
4r	4r	.	4r	.	4r	4r	.	(16gg\LL	.	4r	.	4r	.	4r	4r	.
.	.	.	.	.	.	.	.	16ee\	.	.	.	.	.	.	.	.
.	.	.	.	.	.	.	.	16cc\	.	.	.	.	.	.	.	.
.	.	.	.	.	.	.	.	16a\JJ)	.	.	.	.	.	.	.	.
=74	=74	=74	=74	=74	=74	=74	=74	=74	=74	=74	=74	=74	=74	=74	=74	=74
2r	2r	.	2D\	p	2r	2r	.	(4.g/	.	(4.B/	p	(4.d\	p	2DD\	2D\	p
.	.	.	.	.	.	.	.	32bP/	.	32dP/	.	8F#/)	.	.	.	.
.	.	.	.	.	.	.	.	16ap/LL	.	16cp/LL	.	.	.	.	.	.
.	.	.	.	.	.	.	.	32g/JJk)	.	32B/JJk)	.	.	.	.	.	.
=75	=75	=75	=75	=75	=75	=75	=75	=75	=75	=75	=75	=75	=75	=75	=75	=75
[2ffn/	[2dd\	f	16BB/LL	f	[2cc/	[2c\	f	4.ddd\	f	(32fn/LLL	f	16d\LL	f	16BBB/LL	16BB/LL	f
.	.	.	.	.	.	.	.	.	.	32g/	.	.	.	.	.	.
.	.	.	16BB/	.	.	.	.	.	.	32f/	.	16d\	.	16BBB/	16BB/	.
.	.	.	.	.	.	.	.	.	.	32g/JJJ	.	.	.	.	.	.
.	.	.	16BB/	.	.	.	.	.	.	32f/LLL	.	16d\	.	16BBB/	16BB/	.
.	.	.	.	.	.	.	.	.	.	32g/	.	.	.	.	.	.
.	.	.	16BB/JJ	.	.	.	.	.	.	32f/	.	16d\JJ	.	16BBB/JJ	16BB/JJ	.
.	.	.	.	.	.	.	.	.	.	32g/JJJ)	.	.	.	.	.	.
.	.	.	16BB/LL	.	.	.	.	.	.	(32f/LLL	.	16d\LL	.	16BBB/LL	16BB/LL	.
.	.	.	.	.	.	.	.	.	.	32g/	.	.	.	.	.	.
.	.	.	16BB/	.	.	.	.	.	.	32f/	.	16d\	.	16BBB/	16BB/	.
.	.	.	.	.	.	.	.	.	.	32g/JJJ	.	.	.	.	.	.
.	.	.	16BB/	.	.	.	.	(32ccc\LLL	.	32f/LLL	.	16d\	.	16BBB/	16BB/	.
.	.	.	.	.	.	.	.	32bb\	.	32g/	.	.	.	.	.	.
.	.	.	16BB/JJ	.	.	.	.	32aa\	.	32f/	.	16d\JJ	.	16BBB/JJ	16BB/JJ	.
.	.	.	.	.	.	.	.	32gg\JJJ)	.	32g/JJJ)	.	.	.	.	.	.
=76	=76	=76	=76	=76	=76	=76	=76	=76	=76	=76	=76	=76	=76	=76	=76	=76
(2ff/]	(2dd\]	.	16BB/LL	.	2cc/_	2c\_	.	(32gg\LLL	.	(32fn/LLL	.	16d\LL	.	16BBB/LL	16BB/LL	.
.	.	.	.	.	.	.	.	32ffn\)	.	32g/	.	.	.	.	.	.
.	.	.	16BB/	.	.	.	.	(32ff\	.	32f/	.	16d\	.	16BBB/	16BB/	.
.	.	.	.	.	.	.	.	32ee\JJJ)	.	32g/JJJ	.	.	.	.	.	.
.	.	.	16BB/	.	.	.	.	(32ee\LLL	.	32f/LLL	.	16d\	.	16BBB/	16BB/	.
.	.	.	.	.	.	.	.	32dd\)	.	32g/	.	.	.	.	.	.
.	.	.	16BB/JJ	.	.	.	.	(32dd\	.	32f/	.	16d\JJ	.	16BBB/JJ	16BB/JJ	.
.	.	.	.	.	.	.	.	32cc\JJJ)	.	32g/JJJ)	.	.	.	.	.	.
.	.	.	16BB/LL	.	.	.	.	(32cc\LLL	.	(32f/LLL	.	16d\LL	.	16BBB/LL	16BB/LL	.
.	.	.	.	.	.	.	.	32b\)	.	32g/	.	.	.	.	.	.
.	.	.	16BB/	.	.	.	.	(32b\	.	32f/	.	16d\	.	16BBB/	16BB/	.
.	.	.	.	.	.	.	.	32a\JJJ)	.	32g/JJJ	.	.	.	.	.	.
.	.	.	16BB/	.	.	.	.	(32a/LLL	.	32f/LLL	.	16d\	.	16BBB/	16BB/	.
.	.	.	.	.	.	.	.	32g/)	.	32g/)	.	.	.	.	.	.
.	.	.	16BB/JJ	.	.	.	.	(32g/	.	32g'/	.	16d\JJ	.	16BBB/JJ	16BB/JJ	.
.	.	.	.	.	.	.	.	32fn/JJJ)	.	32g'/JJJ	.	.	.	.	.	.
=77	=77	=77	=77	=77	=77	=77	=77	=77	=77	=77	=77	=77	=77	=77	=77	=77
4ee/)	4cc\)	.	4C/	.	4cc/]	4c\]	.	[8e/L	.	4g/	.	4c\	.	4CC/	4C/	.
.	.	.	.	.	.	.	.	32e/LL]	.	.	.	.	.	.	.	.
.	.	.	.	.	.	.	.	(32d#/	p	.	.	.	.	.	.	.
.	.	.	.	.	.	.	.	32e/	.	.	.	.	.	.	.	.
.	.	.	.	.	.	.	.	32d#/JJJ	.	.	.	.	.	.	.	.
4r	4r	.	4r	.	4r	4r	.	32e/LLL	.	4r	.	4r	.	4r	4r	.
.	.	.	.	.	.	.	.	32f#/	.	.	.	.	.	.	.	.
.	.	.	.	.	.	.	.	32g/	.	.	.	.	.	.	.	.
.	.	.	.	.	.	.	.	32f#/JJJ	.	.	.	.	.	.	.	.
.	.	.	.	.	.	.	.	32g/LLL	.	.	.	.	.	.	.	.
.	.	.	.	.	.	.	.	32g#/	.	.	.	.	.	.	.	.
.	.	.	.	.	.	.	.	32a/	.	.	.	.	.	.	.	.
.	.	.	.	.	.	.	.	32g#/JJJ)	.	.	.	.	.	.	.	.
=78	=78	=78	=78	=78	=78	=78	=78	=78	=78	=78	=78	=78	=78	=78	=78	=78
*	*	*	*^	*	*	*	*	*	*	*	*	*	*	*	*	*
2r	2r	.	2r	2r	.	2r	2r	.	(32a\LLL	.	32r	.	2r	.	2r	2r	.
.	.	.	.	.	.	.	.	.	32b\	.	(32B/LLL	p	.	.	.	.	.
.	.	.	.	.	.	.	.	.	32cc\	.	32c/	.	.	.	.	.	.
.	.	.	.	.	.	.	.	.	32b\JJJ	.	32B/JJJ	.	.	.	.	.	.
.	.	.	.	.	.	.	.	.	32cc\LLL	.	32c/LLL	.	.	.	.	.	.
.	.	.	.	.	.	.	.	.	32dd#\	.	32d#/	.	.	.	.	.	.
.	.	.	.	.	.	.	.	.	32ee\	.	32e/	.	.	.	.	.	.
.	.	.	.	.	.	.	.	.	32dd#\JJJ	.	32d#/JJJ	.	.	.	.	.	.
.	.	.	.	.	.	.	.	.	32ee\LLL	.	32e/LLL	.	.	.	.	.	.
.	.	.	.	.	.	.	.	.	32ff#\	.	32f#/	.	.	.	.	.	.
.	.	.	.	.	.	.	.	.	32gg\	.	32g/	.	.	.	.	.	.
.	.	.	.	.	.	.	.	.	32ff#\JJJ	.	32f#/JJJ	.	.	.	.	.	.
.	.	.	.	.	.	.	.	.	32gg\LLL	.	32g/LLL	.	.	.	.	.	.
.	.	.	.	.	.	.	.	.	32gg#\	.	32g#/	.	.	.	.	.	.
.	.	.	.	.	.	.	.	.	32aa\	.	32a/	.	.	.	.	.	.
.	.	.	.	.	.	.	.	.	32gg#\JJJ)	.	32g#/JJJ)	.	.	.	.	.	.
=79	=79	=79	=79	=79	=79	=79	=79	=79	=79	=79	=79	=79	=79	=79	=79	=79	=79
(8aa'/L	8ee\L	p	(8A'/L	8E\L	p	8cc'/L	(8c'\L	p	(16.aa\LL	.	(16.a/LL	.	(8e'\L	p	(8CC'/L	(8C'/L	p
.	.	.	.	.	.	.	.	.	32ee\k)	.	32e/k)	.	.	.	.	.	.
8aa'/	8ee\	.	8A'/	8E\	.	8cc/	8c'\	.	(16.ccc\	.	(16.cc/	.	8e'\	.	8CC'/	8C'/	.
.	.	.	.	.	.	.	.	.	32aa\JJk)	.	32a/JJk)	.	.	.	.	.	.
8aa'/	8ee\	.	8A'/	8E\	.	8cc/	8c'\	.	(16.ccc\LL	.	(16.cc/LL	.	8e'\	.	8CC'/	8C'/	.
.	.	.	.	.	.	.	.	.	32aa\k)	.	32a/k)	.	.	.	.	.	.
8aa'/J)	8ee\J	.	8A'/J)	8E\J	.	8cc/J	8c'\J)	.	(16.ccc\	.	(16.cc/	.	8e'\J)	.	8CC'/J)	8C'/J)	.
.	.	.	.	.	.	.	.	.	32aa\JJk)	.	32a/JJk)	.	.	.	.	.	.
=80	=80	=80	=80	=80	=80	=80	=80	=80	=80	=80	=80	=80	=80	=80	=80	=80	=80
16r	16r	.	(16B/LL	16D\LL	.	16r	16r	.	(16.bb\LL	.	8b/ 8g/	.	8d\	.	8DD\L	8D\L	.
(16bb'/LL	16gg\LL	.	16d/)	16B\	.	(16ee'/LL	16cc\LL	.	.	.	.	.	.	.	.	.	.
.	.	.	.	.	.	.	.	.	32gg\Jk)	.	.	.	.	.	.	.	.
16bb'/	16gg\	.	16d'/	16B\	.	16ee'/	16cc\	.	[8ddd\J	>	8r	.	8r	.	8DD\	8D\	.
16bb'/JJ)	16gg\JJ	.	16d'/JJ	16B\JJ	.	16ee'/JJ)	16cc\JJ	.	.	.	.	.	.	.	.	.	.
16r	16r	.	16r	16r	.	16r	16r	.	24ddd\LL]	]	8g/ 8B/	.	8d\	.	8DD\	8D\	.
.	.	.	.	.	.	.	.	.	24bb\	.	.	.	.	.	.	.	.
(16bb'/LL	16gg\LL	.	(16g'/LL	16B\LL	.	(16ee'/LL	16g\LL	.	.	.	.	.	.	.	.	.	.
.	.	.	.	.	.	.	.	.	24gg\JJ	.	.	.	.	.	.	.	.
16bb'/	16gg\	.	16g'/	16B\	.	16ee'/	16g\	.	24dd\LL	.	8r	.	8r	.	8DD\J	8D\J	.
.	.	.	.	.	.	.	.	.	24b\	.	.	.	.	.	.	.	.
16bb'/JJ)	16gg\JJ	.	16g'/JJ)	16B\JJ	.	16ee'/JJ)	16g\JJ	.	.	.	.	.	.	.	.	.	.
.	.	.	.	.	.	.	.	.	24g\JJ	.	.	.	.	.	.	.	.
=81	=81	=81	=81	=81	=81	=81	=81	=81	=81	=81	=81	=81	=81	=81	=81	=81	=81
16r	16r	.	16r	16r	.	16r	16r	.	2aT/	.	8g/ 8A/	.	8d\ 8c\	.	8DD\L	8D\L	.
(16aa'/LL	16gg\LL	.	(16g'/LL	16c\LL	.	(16dd'/LL	16g\LL	.	.	.	.	.	.	.	.	.	.
16aa'/	16gg\	.	16g'/	16c\	.	16dd'/	16g\	.	.	.	8r	.	8r	.	8DD\	8D\	.
16aa'/JJ)	16gg\JJ	.	16g'/JJ)	16c\JJ	.	16dd'/JJ)	16g\JJ	.	.	.	.	.	.	.	.	.	.
16r	16r	.	16r	16r	.	16r	16r	.	.	.	8f#/ 8A/	.	8d\ 8c\	.	8DD\	8D\	.
(16aa'/LL	16ff#\LL	.	(16f#'/LL	16c\LL	.	(16dd'/LL	16g\LL	.	.	.	.	.	.	.	.	.	.
16aa'/	16ff#\	.	16f#'/	16c\	.	16dd'/	16g\	.	.	.	8r	.	8r	.	8DD\J	8D\J	.
16aa'/JJ)	16ff#\JJ	.	16f#'/JJ)	16c\JJ	.	16dd'/JJ)	16g\JJ	.	.	.	.	.	.	.	.	.	.
!	!	!	!	!	!	!	!	!	! (16gP/LL	!	!	!	!	!	!	!	!
!	!	!	!	!	!	!	!	!	! 16aP/JJ)	!	!	!	!	!	!	!	!
=82	=82	=82	=82	=82	=82	=82	=82	=82	=82	=82	=82	=82	=82	=82	=82	=82	=82
8gg/	8gg\	.	8g/	8B\	.	8cc/	8g\	.	16gp'\LL	.	16g/ 16B'/LL	.	8d\ 8B\	.	8GG\	8G\	.
.	.	.	.	.	.	.	.	.	16bb'\J	.	16b'/J	.	.	.	.	.	.
8r	8r	.	8r	8r	.	8r	8r	.	(8.ddd\J]	>	(8.dd/J	>	8r	.	8r	8r	.
4r	4r	.	4r	4r	.	4r	4r	.	.	.	.	.	(4f#\ (4c\	fp	(4D\	(4d\	fp
.	.	.	.	.	.	.	.	.	16ccc#\LL)	]	16cc#\LL)	]	.	.	.	.	.
.	.	.	.	.	.	.	.	.	(32cccn\L	.	(32ccn\L	.	.	.	.	.	.
.	.	.	.	.	.	.	.	.	32bb\	.	32b\	.	.	.	.	.	.
.	.	.	.	.	.	.	.	.	32ccc\	.	32cc\	.	.	.	.	.	.
.	.	.	.	.	.	.	.	.	32aa\JJJ)	.	32a\JJJ)	.	.	.	.	.	.
=83	=83	=83	=83	=83	=83	=83	=83	=83	=83	=83	=83	=83	=83	=83	=83	=83	=83
16gg'/LL	2r	.	2r	2r	.	2r	2r	.	16gg'\LL	.	16g'/LL	.	8g\ 8B\)	.	8GG\)	8G\)	.
16bb'/J	.	.	.	.	.	.	.	.	16b'\J	.	16B'/J	.	.	.	.	.	.
(8.ddd/J	.	>	.	.	.	.	.	.	(8.dd\J	>	(8.d/J	>	8r	.	8r	8r	.
.	.	.	.	.	.	.	.	.	.	.	.	.	(4c/ (4F#/	fp	(4DD\	(4D\	fp
16ccc#/LL)	.	]	.	.	.	.	.	.	16cc#\LL)	]	16c#/LL)	]	.	.	.	.	.
(32cccn/L	.	.	.	.	.	.	.	.	(32ccn\L	.	(32cn/L	.	.	.	.	.	.
32bb/	.	.	.	.	.	.	.	.	32b\	.	32B/	.	.	.	.	.	.
32ccc/	.	.	.	.	.	.	.	.	32cc\	.	32c/	.	.	.	.	.	.
32aa/JJJ)	.	.	.	.	.	.	.	.	32a\JJJ)	.	32A/JJJ)	.	.	.	.	.	.
=84	=84	=84	=84	=84	=84	=84	=84	=84	=84	=84	=84	=84	=84	=84	=84	=84	=84
8gg'/L	8r	.	2r	2r	.	8r	8r	.	8g'/L	.	8G'/L	.	8B/ 8G/L)	.	8GGG/L)	8GG/L)	.
8bb'/	8dd'\L	.	.	.	.	8cc/L	8c'\L	.	8b'/	.	8d'/	.	8G'/	.	8GG'/	8G'/	.
8gg'/J	8b'\J	.	.	.	.	8cc/J	8c'\J	.	8g'/J	.	8B'/J	.	8G'/J	.	8GGG'/J	8GG'/J	.
8ryy	8r	.	.	.	.	8r	8r	.	8r	.	8r	.	8r	.	8r	8r	.
==:|!	==:|!	==:|!	==:|!	==:|!	==:|!	==:|!	==:|!	==:|!	==:|!	==:|!	==:|!	==:|!	==:|!	==:|!	==:|!	==:|!	==:|!
*-	*-	*-	*-	*-	*-	*-	*-	*-	*-	*-	*-	*-	*-	*-	*-	*-	*-
!!!RWG: Appoggiaturas of spine 'Violino 1' need manual editing in measures: 5, 5, 5, 7, 7, 7, 13, 13, 15, 15, 33, 54, 54, 54, 56, 56, 56, 62, 62, 64, 64, 82
!!!RWG: Appoggiaturas of spine 'Violino 2' need manual editing in measures: 13, 13, 15, 15, 33, 62, 62, 64, 64
!!!RWG: Key is interpreted using the Humdrum key tool.
!!!OPT: Haffner
!!!AFT: stage2
!!!END: 1994/03/11
!!format changes:
!!content changes:
!!public access: complete
!!!KEY: 1683545301
!!!EMD: Converted from MuseData to Humdrum Dec 16, 2000, by Andreas Kornstaedt using muse2kern.
